!!!!SEGMENT: pl-stab--6a--001-007_dankowski-adalbert--vespera-de-confes-ex-c-magnificat.krn
!!!cenid: 18xx:3467
!!!COM: Dankowski, Adalbert
!!!COM-rismid: pe30000793
!!!CDT: ~1760-~1836
!!!CNT: Polish
!!!OPR: Vespera de Confes ex C
!!!OTL: Magnificat
!!!OMV: 007
!!!PDT:
!!!AGN: Sacred; Vespers
!!!SMS-siglum: PL-STAb
!!!SMS-shelfmark: 6a
!!!SMS-shelfwork: 001-007 M
!!!SMS-variant:
!!!SMS-altvar:
!!!NIFC-rismid: 301050559
!!!URL-scan: https://repozytorium.nifc.pl/islandora/object/pl-stab%3A1600/datastream/PDF/view
!!!ONB-nifc: UWAGA: części Vesperae: 1. Domine ad adjuvandum, 2. Dixit Dominus, 3. Confitebor, 4. Beatus vir, 5. Laudate pueri, 6. Laudate Dominus, 7. Magnificat
!!!key: C
**kern	**fba	**dynam	**kern	**dynam	**kern	**dynam	**kern	**text	**kern	**text	**kern	**text	**kern	**text	**kern	**kern
*	*	*	*group3	*	*group3	*	*group2	*	*group2	*	*group2	*	*group2	*	*group1	*group1
*part9	*part9	*part9	*part8	*part8	*part7	*part7	*part6	*part6	*part5	*part5	*part4	*part4	*part3	*part3	*part2	*part1
*staff9	*	*	*staff8	*	*staff7	*	*staff6	*staff6	*staff5	*staff5	*staff4	*staff4	*staff3	*staff3	*staff2	*staff1
*I"Organo	*	*	*I"Violino Secondo	*	*I"Violino Primo	*	*I"Baſso.	*	*I"Tenore.	*	*I"Alto.	*	*I"Canto	*	*I"Cornu Secondo	*I"Cornu Primo
*I'org	*	*	*I'vl 2	*	*I'vl 1	*	*I'B	*	*I'T	*	*I'A	*	*I'S	*	*I'cor 2	*I'cor 1
*Iorgan	*	*	*Ivioln	*	*Ivioln	*	*Ibass	*	*Itenor	*	*Ialto	*	*Isoprn	*	*Icor	*Icor
*ICklav	*	*	*ICstr	*	*ICstr	*	*ICvox	*	*ICvox	*	*ICvox	*	*ICvox	*	*ICbras	*ICbras
*IGcont	*	*	*	*	*	*	*	*	*	*	*	*	*	*	*	*
*clefF4	*	*	*clefG2	*	*clefG2	*	*clefF4	*	*clefC4	*	*clefC3	*	*clefC1	*	*clefG2	*clefG2
*k[]	*	*	*k[]	*	*k[]	*	*k[]	*	*k[]	*	*k[]	*	*k[]	*	*k[]	*k[]
*C:	*	*	*C:	*	*C:	*	*C:	*	*C:	*	*C:	*	*C:	*	*C:	*C:
*M3/4	*	*	*M3/4	*	*M3/4	*	*M3/4	*	*M3/4	*	*M3/4	*	*M3/4	*	*M3/4	*M3/4
*2\right	*	*	*2\right	*	*2\right	*	*2\right	*	*2\right	*	*2\right	*	*2\right	*	*2\right	*2\right
=1	=1	=1	=1	=1	=1	=1	=1	=1	=1	=1	=1	=1	=1	=1	=1	=1
!LO:TX:a:i:t=Allo	!	!	!LO:TX:a:i:t=Allo	!LO:DY:a:t=f.	!LO:TX:a:i:t=Allo	!LO:DY:a:t=for.	!LO:TX:a:i:t=Allo	!	!LO:TX:a:i:t=Allo	!	!	!	!LO:TX:a:i:t=Allo	!	!LO:TX:a:i:t=Allo in. C	!LO:TX:a:i:t=Allo in C
4C/	.	.	8e/L	f	8cc\L	f	4C/	Ma-	4c\	Ma-	4g\	Ma-	4ee\	Ma-	4cc\	4ee\
.	.	.	32e/LL	.	32cc\LL	.	.	.	.	.	.	.	.	.	.	.
.	.	.	32d/	.	32b\	.	.	.	.	.	.	.	.	.	.	.
.	.	.	32e/	.	32cc\	.	.	.	.	.	.	.	.	.	.	.
.	.	.	32f/JJJ	.	32dd\JJJ	.	.	.	.	.	.	.	.	.	.	.
4G\	4	.	8g/L	.	8ee\L	.	4G\	-gni-	4c\	-gni-	4g\	-gni-	4ee\	-gni-	4cc\	4ee\
.	.	.	8e/	.	8cc\	.	.	.	.	.	.	.	.	.	.	.
4GG/	3	.	8f/	.	8dd\	.	4G\	-fi-	4B\	-fi-	4g\	-fi-	4dd\	-fi-	4g/	4dd\
.	.	.	8d/J	.	8b\J	.	.	.	.	.	.	.	.	.	.	.
=2	=2	=2	=2	=2	=2	=2	=2	=2	=2	=2	=2	=2	=2	=2	=2	=2
!	!	!	!	!	!LO:TX:t=P:problem=mixed beam	!	!	!	!	!	!	!	!	!	!	!
4C/	.	.	16e/LL	.	16cc\LL	.	4C/	-cat	4c\	-cat	4g\	-cat	4ee\	-cat	4e/	4cc\
.	.	.	16c/	.	16e/	.	.	.	.	.	.	.	.	.	.	.
.	.	.	16d/	.	16f/	.	.	.	.	.	.	.	.	.	.	.
.	.	.	16e/JJ	.	16g/JJ	.	.	.	.	.	.	.	.	.	.	.
4r	.	.	16f/LL	.	16a/LL	.	4r	.	4r	.	4r	.	4r	.	4r	4r
.	.	.	16e/	.	16g/	.	.	.	.	.	.	.	.	.	.	.
.	.	.	16f/	.	16a/	.	.	.	.	.	.	.	.	.	.	.
.	.	.	16g/JJ	.	16b/JJ	.	.	.	.	.	.	.	.	.	.	.
4r	.	.	16a/LL	.	16cc\LL	.	4r	.	4r	.	4r	.	4r	.	4r	4r
.	.	.	16g/	.	16b\	.	.	.	.	.	.	.	.	.	.	.
.	.	.	16a/	.	16cc\	.	.	.	.	.	.	.	.	.	.	.
.	.	.	16b/JJ	.	16dd\JJ	.	.	.	.	.	.	.	.	.	.	.
=3	=3	=3	=3	=3	=3	=3	=3	=3	=3	=3	=3	=3	=3	=3	=3	=3
*	*	*	*	*	*	*	*	*ij	*	*ij	*	*ij	*	*ij	*	*
!	!	!	!LO:TX:t=P:problem=mixed beam	!	!	!	!	!	!	!	!	!	!	!	!	!
4C/	.	.	8cc\L	.	8ee\L	.	4C/	Ma-	4c\	Ma-	4g\	Ma-	4ee\	Ma-	4cc\	4ee\
.	.	.	32e/LL	.	32cc\LL	.	.	.	.	.	.	.	.	.	.	.
.	.	.	32d/	.	32b\	.	.	.	.	.	.	.	.	.	.	.
.	.	.	32e/	.	32cc\	.	.	.	.	.	.	.	.	.	.	.
.	.	.	32f/JJJ	.	32dd\JJJ	.	.	.	.	.	.	.	.	.	.	.
4G\	4	.	8g/L	.	8ee\L	.	4G\	-gni-	4c\	-gni-	4g\	-gni-	4ee\	-gni-	4cc\	4ee\
.	.	.	8e/	.	8cc\	.	.	.	.	.	.	.	.	.	.	.
4GG/	3	.	8f/	.	8dd\	.	4G\	-fi-	4B\	-fi-	4g\	-fi-	4dd\	-fi-	4g/	4dd\
.	.	.	8d/J	.	8b\J	.	.	.	.	.	.	.	.	.	.	.
=4	=4	=4	=4	=4	=4	=4	=4	=4	=4	=4	=4	=4	=4	=4	=4	=4
4C/	.	.	8e/L	.	8cc\L	.	4C/	-cat	4c\	-cat	4g\	-cat	4ee\	-cat	4e/	4cc\
*	*	*	*	*	*	*	*	*Xij	*	*Xij	*	*Xij	*	*Xij	*	*
.	.	.	16f/L	.	16dd\L	.	.	.	.	.	.	.	.	.	.	.
.	.	.	16g/JJ	.	16ee\JJ	.	.	.	.	.	.	.	.	.	.	.
!	!	!	!LO:LB:g=original	!	!LO:LB:g=original	!	!	!	!	!	!	!	!	!	!	!
4r	.	.	16a/LL	.	16ff\LL	.	4r	.	4r	.	4r	.	4r	.	4r	4r
.	.	.	16g/	.	16ee\	.	.	.	.	.	.	.	.	.	.	.
.	.	.	16a/	.	16ff\	.	.	.	.	.	.	.	.	.	.	.
.	.	.	16b/JJ	.	16gg\JJ	.	.	.	.	.	.	.	.	.	.	.
4r	.	.	16cc\LL	.	16aa\LL	.	4r	.	4r	.	4r	.	4r	.	4r	4r
.	.	.	16b\	.	16gg\	.	.	.	.	.	.	.	.	.	.	.
.	.	.	16cc\	.	16aa\	.	.	.	.	.	.	.	.	.	.	.
.	.	.	16dd\JJ	.	16bb\JJ	.	.	.	.	.	.	.	.	.	.	.
=5	=5	=5	=5	=5	=5	=5	=5	=5	=5	=5	=5	=5	=5	=5	=5	=5
8c\L	.	.	16cc/LL	.	8ccc\L	.	4.c\	a-	4.c\	a-	4.g\	a-	4.ee\	a-	2.e/	2.cc\
.	.	.	16g/	.	.	.	.	.	.	.	.	.	.	.	.	.
8c\	.	.	16e/	.	32ee\LL	.	.	.	.	.	.	.	.	.	.	.
.	.	.	.	.	32dd\	.	.	.	.	.	.	.	.	.	.	.
.	.	.	16g/JJ	.	32ee\	.	.	.	.	.	.	.	.	.	.	.
.	.	.	.	.	32ff\JJJ	.	.	.	.	.	.	.	.	.	.	.
8c\	.	.	16e/LL	.	8gg\L	.	.	.	.	.	.	.	.	.	.	.
.	.	.	16g/	.	.	.	.	.	.	.	.	.	.	.	.	.
8c\	.	.	16e/	.	8ee\	.	8c\	-ni-	8c\	-ni-	8g\	-ni-	8ee\	-ni-	.	.
.	.	.	16g/JJ	.	.	.	.	.	.	.	.	.	.	.	.	.
8c\	.	.	16e/LL	.	8gg\	.	4c\	-ma	4c\	-ma	4g\	-ma	4ee\	-ma	.	.
.	.	.	16g/	.	.	.	.	.	.	.	.	.	.	.	.	.
8c\J	.	.	16e/	.	8ee\J	.	.	.	.	.	.	.	.	.	.	.
.	.	.	16g/JJ	.	.	.	.	.	.	.	.	.	.	.	.	.
=6	=6	=6	=6	=6	=6	=6	=6	=6	=6	=6	=6	=6	=6	=6	=6	=6
*	*	*	*tremolo	*	*	*	*	*	*	*ij	*	*ij	*	*ij	*	*
!	!	!	!	!	!	!	!	!	!	!	!LO:LB:g=original	!	!	!	!	!
!	!	!	!	!	!	!	!	!	!LO:LB:g=original	!	!	!	!	!	!	!
!	!	!	!	!	!	!	!LO:LB:g=original	!	!	!	!	!	!	!	!	!
8B\L	.	.	16d/LL	.	8dd\L	.	4.B\	a-	4.d\	a-	4.g\	a-	4.ff\	a-	2.g/	2.dd\
.	.	.	16g/	.	.	.	.	.	.	.	.	.	.	.	.	.
8B\	.	.	16d/	.	32dd\LL	.	.	.	.	.	.	.	.	.	.	.
.	.	.	.	.	32cc\	.	.	.	.	.	.	.	.	.	.	.
.	.	.	16g/	.	32dd\	.	.	.	.	.	.	.	.	.	.	.
.	.	.	.	.	32ee\JJJ	.	.	.	.	.	.	.	.	.	.	.
8B\	.	.	16d/	.	8ff\L	.	.	.	.	.	.	.	.	.	.	.
.	.	.	16g/	.	.	.	.	.	.	.	.	.	.	.	.	.
8B\	.	.	16d/	.	8dd\	.	8B\	-ni-	8d\	-ni-	8g\	-ni-	8ff\	-ni-	.	.
.	.	.	16g/	.	.	.	.	.	.	.	.	.	.	.	.	.
!	!	!	!	!	!	!	!	!	!	!	!	!	!LO:LB:g=original	!	!	!
8B\	.	.	16d/	.	8gg\	.	4B\	-ma	4d\	-ma	4g\	-ma	4ff\	-ma	.	.
*	*	*	*	*	*	*	*	*	*	*Xij	*	*Xij	*	*Xij	*	*
.	.	.	16g/	.	.	.	.	.	.	.	.	.	.	.	.	.
8B\J	.	.	16d/	.	8ff\J	.	.	.	.	.	.	.	.	.	.	.
.	.	.	16g/JJ	.	.	.	.	.	.	.	.	.	.	.	.	.
=7	=7	=7	=7	=7	=7	=7	=7	=7	=7	=7	=7	=7	=7	=7	=7	=7
!	!	!	!	!	!	!	!	!	!	!	!	!	!	!	!	!LO:LB:g=original
!	!	!	!	!	!	!	!	!	!	!	!	!	!	!	!LO:LB:g=original	!
8c\L	.	.	16e/LL	.	8ee\L	.	2c\	me-	2c\	me-	2g\	me-	2ee\	me-	2.cc\	2.ee\
.	.	.	16g/	.	.	.	.	.	.	.	.	.	.	.	.	.
8c\	.	.	16e/	.	32cc\LL	.	.	.	.	.	.	.	.	.	.	.
.	.	.	.	.	32b\	.	.	.	.	.	.	.	.	.	.	.
.	.	.	16g/	.	32cc\	.	.	.	.	.	.	.	.	.	.	.
.	.	.	.	.	32dd\JJJ	.	.	.	.	.	.	.	.	.	.	.
8c\	.	.	16e/	.	8ee\L	.	.	.	.	.	.	.	.	.	.	.
.	.	.	16g/	.	.	.	.	.	.	.	.	.	.	.	.	.
8c\	.	.	16e/	.	8cc\	.	.	.	.	.	.	.	.	.	.	.
.	.	.	16g/	.	.	.	.	.	.	.	.	.	.	.	.	.
8c\	.	.	16e/	.	8gg\	.	4c\	-a	4c\	-a	4g\	-a	4ee\	-a	.	.
.	.	.	16g/	.	.	.	.	.	.	.	.	.	.	.	.	.
8c\J	.	.	16e/	.	8ee\J	.	.	.	.	.	.	.	.	.	.	.
.	.	.	16g/JJ	.	.	.	.	.	.	.	.	.	.	.	.	.
*	*	*	*Xtremolo	*	*	*	*	*	*	*	*	*	*	*	*	*
=8	=8	=8	=8	=8	=8	=8	=8	=8	=8	=8	=8	=8	=8	=8	=8	=8
4G\	4	.	8cc\L	.	8ee|>\L	.	8G\	Do-	8c\	Do-	8g\	Do-	8ee\	Do-	4cc\	4ee\
.	.	.	16b\L	.	16dd\L	.	8G\	-mi-	8c\	-mi-	8g\	-mi-	8ee\	-mi-	.	.
.	.	.	16cc\JJ	.	16ee\JJ	.	.	.	.	.	.	.	.	.	.	.
4GG/	3	.	4b\	.	4dd\	.	4G\	-num	4B\	-num	4g\	-num	4dd\	-num	4g/	4dd\
4r	.	.	4r	.	4r	.	4r	.	4r	.	4r	.	4r	.	4r	4r
=9	=9	=9	=9	=9	=9	=9	=9	=9	=9	=9	=9	=9	=9	=9	=9	=9
!LO:LB:g=original	!	!	!	!LO:DY:a:t=p.	!LO:TX:a:i:t=Solo	!	!	!	!	!	!	!	!LO:TX:a:i:t=Solo	!	!	!
4r	.	.	8e/L	p	8cc\L	.	2.r	.	2.r	.	2.r	.	8cc\L	Et	2.r	2.r
.	.	.	8g/	.	8ee\J	.	.	.	.	.	.	.	8ee\J	.	.	.
!	!	!	!	!	!LO:LB:g=original	!	!	!	!	!	!	!	!	!	!	!
4C/	.	.	8e/	.	(4.gg\	.	.	.	.	.	.	.	4.gg\	Ex-	.	.
.	.	.	8g/	.	.	.	.	.	.	.	.	.	.	.	.	.
4C/	.	.	8e/	.	.	.	.	.	.	.	.	.	.	.	.	.
.	.	.	8g/J	.	16ff\LL)	.	.	.	.	.	.	.	16ff\LL	-ul-	.	.
.	.	.	.	.	16ee\JJ	.	.	.	.	.	.	.	16ee\JJ	.	.	.
=10	=10	=10	=10	=10	=10	=10	=10	=10	=10	=10	=10	=10	=10	=10	=10	=10
*	*	*	*tremolo	*	*	*	*	*	*	*	*	*	*	*	*	*
4r	.	.	8f/L	.	(8ee\L	.	2.r	.	2.r	.	2.r	.	8ee\L	-ta-	2.r	2.r
.	.	.	8g/	.	8dd\J)	.	.	.	.	.	.	.	8dd\J	.	.	.
4BB/	6_ 5_	.	8f/	.	4dd|>\	.	.	.	.	.	.	.	4dd\	-vit	.	.
.	.	.	8g/	.	.	.	.	.	.	.	.	.	.	.	.	.
4BB/	x x	.	8f/	.	4r	.	.	.	.	.	.	.	4r	.	.	.
.	.	.	8g/J	.	.	.	.	.	.	.	.	.	.	.	.	.
=11	=11	=11	=11	=11	=11	=11	=11	=11	=11	=11	=11	=11	=11	=11	=11	=11
!	!	!	!LO:LB:g=original	!	!	!	!	!	!	!	!	!	!	!	!	!
4r	.	.	8f/L	.	8dd\L	.	2.r	.	2.r	.	2.r	.	8dd\L	Spi-	2.r	2.r
.	.	.	8g/	.	16ee\L	.	.	.	.	.	.	.	16ee\L	.	.	.
.	.	.	.	.	16ff\JJ	.	.	.	.	.	.	.	16ff\JJ	.	.	.
!	!	!	!	!	!	!	!	!	!	!	!	!	!LO:LB:g=original	!	!	!
4BB/	x x	.	8f/	.	(4.gg\	.	.	.	.	.	.	.	4.gg\	-ri-	.	.
.	.	.	8g/	.	.	.	.	.	.	.	.	.	.	.	.	.
4BB/	x x	.	8f/	.	.	.	.	.	.	.	.	.	.	.	.	.
.	.	.	8g/J	.	8ff\)	.	.	.	.	.	.	.	8ff\	-tus	.	.
=12	=12	=12	=12	=12	=12	=12	=12	=12	=12	=12	=12	=12	=12	=12	=12	=12
4r	.	.	8e/L	.	(8ff\L	.	2.r	.	2.r	.	2.r	.	8ff\L	me-	2.r	2.r
.	.	.	8g/	.	8ee\J)	.	.	.	.	.	.	.	8ee\J	.	.	.
4C/	.	.	8e/	.	4ee|>\	.	.	.	.	.	.	.	4ee\	-us	.	.
.	.	.	8g/	.	.	.	.	.	.	.	.	.	.	.	.	.
4C/	.	.	8e/	.	4r	.	.	.	.	.	.	.	4r	.	.	.
.	.	.	8g/J	.	.	.	.	.	.	.	.	.	.	.	.	.
=13	=13	=13	=13	=13	=13	=13	=13	=13	=13	=13	=13	=13	=13	=13	=13	=13
4r	.	.	8e/L	.	(4.cc\	.	2.r	.	2.r	.	2.r	.	4cc\	in	2.r	2.r
.	.	.	8g/	.	.	.	.	.	.	.	.	.	.	.	.	.
4E\	6	.	8e/	.	.	.	.	.	.	.	.	.	4cc\	de-	.	.
.	.	.	8g/	.	16b\LL)	.	.	.	.	.	.	.	.	.	.	.
.	.	.	.	.	16cc\JJ	.	.	.	.	.	.	.	.	.	.	.
4E\	.	.	8e/	.	8ee\L	.	.	.	.	.	.	.	8ee\L	-o	.	.
.	.	.	8g/J	.	8cc\J	.	.	.	.	.	.	.	8cc\J	.	.	.
=14	=14	=14	=14	=14	=14	=14	=14	=14	=14	=14	=14	=14	=14	=14	=14	=14
4r	.	.	8f/L	.	4.dd\	.	2.r	.	2.r	.	2.r	.	4.dd\	sa-	2.r	2.r
.	.	.	8g/	.	.	.	.	.	.	.	.	.	.	.	.	.
4F\	6	.	8f/	.	.	.	.	.	.	.	.	.	.	.	.	.
.	.	.	8g/	.	(16ff\LL	.	.	.	.	.	.	.	16ff\LL	.	.	.
.	.	.	.	.	16ee\JJ)	.	.	.	.	.	.	.	16ee\JJ	.	.	.
4F\	.	.	8f/	.	(16gg\LL	.	.	.	.	.	.	.	16gg\LL	.	.	.
.	.	.	.	.	16ff\)	.	.	.	.	.	.	.	16ff\JJ	.	.	.
.	.	.	8g/J	.	(16ee\	.	.	.	.	.	.	.	16ee\LL	-lu-	.	.
.	.	.	.	.	16dd\JJ)	.	.	.	.	.	.	.	16dd\JJ	.	.	.
*	*	*	*Xtremolo	*	*	*	*	*	*	*	*	*	*	*	*	*
=15	=15	=15	=15	=15	=15	=15	=15	=15	=15	=15	=15	=15	=15	=15	=15	=15
4G\	4	.	8e/L	.	8cc\L	.	2.r	.	2.r	.	2.r	.	8cc\	-ta-	2.r	2.r
.	.	.	8g/	.	16b\L	.	.	.	.	.	.	.	16b\LL	-ri	.	.
.	.	.	.	.	16cc\JJ	.	.	.	.	.	.	.	16cc\JJ	.	.	.
!	!	!	!	!	!LO:LB:g=original	!	!	!	!	!	!	!	!	!	!	!
4GG/	3	.	8f/	.	4dd\	.	.	.	.	.	.	.	4dd\	me-	.	.
.	.	.	8g/	.	.	.	.	.	.	.	.	.	.	.	.	.
4G\	.	.	8d/	.	4b\	.	.	.	.	.	.	.	4b\	.	.	.
.	.	.	8f/J	.	.	.	.	.	.	.	.	.	.	.	.	.
=16	=16	=16	=16	=16	=16	=16	=16	=16	=16	=16	=16	=16	=16	=16	=16	=16
!LO:TX:a:i:t=Tutti	!	!	!	!	!	!	!	!	!	!	!	!	!	!	!	!
!LO:TX:t=P:problem=mixed beam	!	!	!	!LO:DY:a	!	!LO:DY:a	!	!	!	!	!	!	!	!	!	!
!	!	!	!	!	!	!	!	!	!	!	!	!	!LO:LB:g=original	!	!	!
!	!	!	!	!	!	!LO:DY:a:t=for.	!	!	!	!	!	!	!	!	!	!
!	!	!	!	!LO:DY:a:t=f.	!	!	!	!	!	!	!	!	!	!	!	!
8C\L	.	.	16e/LL	f	4cc 4e/	f	4r	.	4r	.	4r	.	4cc\	-o	4e/	4cc\
.	.	.	16g/	.	.	.	.	.	.	.	.	.	.	.	.	.
8c\	.	.	16e/	.	.	.	.	.	.	.	.	.	.	.	.	.
.	.	.	16g/JJ	.	.	.	.	.	.	.	.	.	.	.	.	.
*	*	*	*tremolo	*	*	*	*	*	*	*	*	*	*	*	*	*
8c\	.	.	16e/LL	.	8r	.	2c\	in	2c\	in	2g\	in	2ee\	in	4e/	4cc\
.	.	.	16g/	.	.	.	.	.	.	.	.	.	.	.	.	.
!	!	!	!	!	!LO:TUP:b	!	!	!	!	!	!	!	!	!	!	!
8c\	.	.	16e/	.	24g/LL	.	.	.	.	.	.	.	.	.	.	.
.	.	.	.	.	24f/	.	.	.	.	.	.	.	.	.	.	.
.	.	.	16g/	.	.	.	.	.	.	.	.	.	.	.	.	.
.	.	.	.	.	24g/JJ	.	.	.	.	.	.	.	.	.	.	.
8c\	.	.	16e/	.	8cc\L	.	.	.	.	.	.	.	.	.	4e/	4cc\
.	.	.	16g/	.	.	.	.	.	.	.	.	.	.	.	.	.
8c\J	.	.	16e/	.	8ee\J	.	.	.	.	.	.	.	.	.	.	.
.	.	.	16g/JJ	.	.	.	.	.	.	.	.	.	.	.	.	.
=17	=17	=17	=17	=17	=17	=17	=17	=17	=17	=17	=17	=17	=17	=17	=17	=17
8c\L	.	.	16e/LL	.	8gg\L	.	2c\	De-	2c\	De-	2g\	De-	2ee\	De-	4e/	4cc\
.	.	.	16g/	.	.	.	.	.	.	.	.	.	.	.	.	.
8c\	.	.	16e/	.	8ee\	.	.	.	.	.	.	.	.	.	.	.
.	.	.	16g/	.	.	.	.	.	.	.	.	.	.	.	.	.
8c\	.	.	16e/	.	8ccc\	.	.	.	.	.	.	.	.	.	4e/	4cc\
.	.	.	16g/	.	.	.	.	.	.	.	.	.	.	.	.	.
8c\	.	.	16e/	.	8gg\	.	.	.	.	.	.	.	.	.	.	.
.	.	.	16g/	.	.	.	.	.	.	.	.	.	.	.	.	.
8c\	.	.	16e/	.	8ff\	.	4c\	-o	4c\	-o	4g\	-o	4ee\	-o	4r	4r
.	.	.	16g/	.	.	.	.	.	.	.	.	.	.	.	.	.
8c\J	.	.	16e/	.	8ee\J	.	.	.	.	.	.	.	.	.	.	.
.	.	.	16g/JJ	.	.	.	.	.	.	.	.	.	.	.	.	.
=18	=18	=18	=18	=18	=18	=18	=18	=18	=18	=18	=18	=18	=18	=18	=18	=18
*tremolo	*	*	*	*	*	*	*	*	*	*	*	*	*	*	*	*
!	!	!	!	!	!	!	!	!	!	!	!LO:LB:g=original	!	!	!	!	!
!	!	!	!	!	!	!	!LO:LB:g=original	!	!	!	!	!	!	!	!	!
8B\L	6_	.	16d/LL	.	4dd\	.	2B\	Sa-	2d\	Sa-	2g\	Sa-	2dd\	Sa-	4g/	4dd\
.	.	.	16g/	.	.	.	.	.	.	.	.	.	.	.	.	.
8B\	x	.	16d/	.	.	.	.	.	.	.	.	.	.	.	.	.
.	.	.	16g/	.	.	.	.	.	.	.	.	.	.	.	.	.
8B\	x	.	16d/	.	8r	.	.	.	.	.	.	.	.	.	4g/	4dd\
.	.	.	16g/	.	.	.	.	.	.	.	.	.	.	.	.	.
!	!	!	!	!	!LO:TUP:b:problem=klamra łukowa	!	!	!	!	!	!	!	!	!	!	!
8B\	x	.	16d/	.	24g/LL	.	.	.	.	.	.	.	.	.	.	.
.	.	.	.	.	24f/	.	.	.	.	.	.	.	.	.	.	.
.	.	.	16g/	.	.	.	.	.	.	.	.	.	.	.	.	.
.	.	.	.	.	24g/JJ	.	.	.	.	.	.	.	.	.	.	.
8B\	x	.	16d/	.	8b\L	.	4B\	-lu-	4d\	-lu-	4g\	-lu-	4dd\	-lu-	4g/	4dd\
.	.	.	16g/	.	.	.	.	.	.	.	.	.	.	.	.	.
8B\J	x	.	16d/	.	8dd\J	.	.	.	.	.	.	.	.	.	.	.
.	.	.	16g/JJ	.	.	.	.	.	.	.	.	.	.	.	.	.
*Xtremolo	*	*	*	*	*	*	*	*	*	*	*	*	*	*	*	*
=19	=19	=19	=19	=19	=19	=19	=19	=19	=19	=19	=19	=19	=19	=19	=19	=19
!LO:LB:g=original	!	!	!	!	!	!	!	!	!LO:LB:g=original	!	!	!	!	!	!	!
8B\L	x	.	16d/LL	.	8gg\L	.	2B\	-ta-	2d\	-ta-	2g\	-ta-	2dd\	-ta-	4g/	4dd\
.	.	.	16g/	.	.	.	.	.	.	.	.	.	.	.	.	.
8B\	x	.	16d/	.	8dd\	.	.	.	.	.	.	.	.	.	.	.
.	.	.	16g/	.	.	.	.	.	.	.	.	.	.	.	.	.
8B\	x	.	16d/	.	8bb\	.	.	.	.	.	.	.	.	.	4g/	4dd\
.	.	.	16g/	.	.	.	.	.	.	.	.	.	.	.	.	.
8B\	x	.	16d/	.	8gg\	.	.	.	.	.	.	.	.	.	.	.
.	.	.	16g/	.	.	.	.	.	.	.	.	.	.	.	.	.
8B\	x	.	16d/	.	8dd\	.	4B\	-ri	4d\	-ri	4g\	-ri	4dd\	-ri	4r	4r
.	.	.	16g/	.	.	.	.	.	.	.	.	.	.	.	.	.
8B\J	x	.	16d/	.	8gg\J	.	.	.	.	.	.	.	.	.	.	.
.	.	.	16g/JJ	.	.	.	.	.	.	.	.	.	.	.	.	.
=20	=20	=20	=20	=20	=20	=20	=20	=20	=20	=20	=20	=20	=20	=20	=20	=20
*	*	*	*	*	*	*	*	*ij	*	*ij	*	*	*	*ij	*	*
!	!	!	!LO:LB:g=original	!	!	!	!	!	!	!	!	!	!	!	!	!
8A\L	6 3	.	16c/LL	.	4ff#X\	.	2A\	Sa-	2d\	Sa-	2f#X\	me-	2cc\	Sa-	4dd\	4dd\
.	.	.	16d/	.	.	.	.	.	.	.	.	.	.	.	.	.
8A\	.	.	16c/	.	.	.	.	.	.	.	.	.	.	.	.	.
.	.	.	16d/	.	.	.	.	.	.	.	.	.	.	.	.	.
8A\	.	.	16c/	.	8r	.	.	.	.	.	.	.	.	.	4dd\	4dd\
.	.	.	16d/	.	.	.	.	.	.	.	.	.	.	.	.	.
!	!	!	!	!	!LO:TUP:a:problem=klamra łukowa	!	!	!	!	!	!	!	!	!	!	!
8A\	.	.	16c/	.	24ff#\LL	.	.	.	.	.	.	.	.	.	.	.
.	.	.	.	.	24ee\	.	.	.	.	.	.	.	.	.	.	.
.	.	.	16d/	.	.	.	.	.	.	.	.	.	.	.	.	.
.	.	.	.	.	24ff#\JJ	.	.	.	.	.	.	.	.	.	.	.
8A\	.	.	16c/	.	8dd\L	.	4A\	-lu-	4d\	-lu-	4f#\	-o	4cc\	-lu-	4dd\	4dd\
.	.	.	16d/	.	.	.	.	.	.	.	.	.	.	.	.	.
8A\J	.	.	16c/	.	8ff#\J	.	.	.	.	.	.	.	.	.	.	.
.	.	.	16d/JJ	.	.	.	.	.	.	.	.	.	.	.	.	.
=21	=21	=21	=21	=21	=21	=21	=21	=21	=21	=21	=21	=21	=21	=21	=21	=21
*	*	*	*	*	*	*	*	*	*	*	*	*ij	*	*	*	*
8D\L	#	.	16A/LL	.	8aa\L	.	2D\	-ta-	2d\	-ta-	2a\	me-	2cc\	-ta-	4dd\	4dd\
.	.	.	16d/	.	.	.	.	.	.	.	.	.	.	.	.	.
8D\	.	.	16A/	.	8ff#X\	.	.	.	.	.	.	.	.	.	.	.
.	.	.	16d/	.	.	.	.	.	.	.	.	.	.	.	.	.
8D\	.	.	16A/	.	8dd\	.	.	.	.	.	.	.	.	.	4dd\	4dd\
.	.	.	16d/	.	.	.	.	.	.	.	.	.	.	.	.	.
8D\	.	.	16A/	.	8cc\	.	.	.	.	.	.	.	.	.	.	.
.	.	.	16d/	.	.	.	.	.	.	.	.	.	.	.	.	.
8D\	.	.	16A/	.	8a\	.	4D\	-ri	4d\	-ri	4a\	-o	4cc\	-ri	4r	4r
*	*	*	*	*	*	*	*	*Xij	*	*Xij	*	*Xij	*	*Xij	*	*
.	.	.	16d/	.	.	.	.	.	.	.	.	.	.	.	.	.
8D\J	.	.	16A/	.	8cc\J	.	.	.	.	.	.	.	.	.	.	.
.	.	.	16d/JJ	.	.	.	.	.	.	.	.	.	.	.	.	.
*	*	*	*Xtremolo	*	*	*	*	*	*	*	*	*	*	*	*	*
=22	=22	=22	=22	=22	=22	=22	=22	=22	=22	=22	=22	=22	=22	=22	=22	=22
!	!	!	!	!	!	!	!	!	!	!	!	!	!	!	!	!LO:LB:g=original
!	!	!	!	!	!	!	!	!	!	!	!	!	!	!	!LO:LB:g=original	!
!	!	!	!	!	!LO:LB:g=original	!	!	!	!	!	!	!	!	!	!	!
8G\L	.	.	16B/LL	.	(8b\L	.	4G\	in	4d\	in	4g\	in	4b\	in	8r	8r
.	.	.	16d/	.	.	.	.	.	.	.	.	.	.	.	.	.
8G\	.	.	16B/	.	8dd\J)	.	.	.	.	.	.	.	.	.	8g/L	8dd\L
.	.	.	16d/JJ	.	.	.	.	.	.	.	.	.	.	.	.	.
8G\	.	.	16B/LL	.	8r	.	4G\	De-	4d\	de-	4g\	De-	4b\	De-	8g/	8dd\
.	.	.	16d/	.	.	.	.	.	.	.	.	.	.	.	.	.
8G\	.	.	16B/	.	8dd\	.	.	.	.	.	.	.	.	.	8g/J	8dd\J
.	.	.	16d/JJ	.	.	.	.	.	.	.	.	.	.	.	.	.
8F#X\	6 5	.	16c/LL	.	16dd\LL	.	4F#X\	-o	4d\	-o	4a\	-o	4cc\	-o	4dd\	4dd\
.	.	.	16d/	.	(16cc\	.	.	.	.	.	.	.	.	.	.	.
8F#\J	.	.	16c/	.	16b\	.	.	.	.	.	.	.	.	.	.	.
.	.	.	16d/JJ	.	16a\JJ)	.	.	.	.	.	.	.	.	.	.	.
=23	=23	=23	=23	=23	=23	=23	=23	=23	=23	=23	=23	=23	=23	=23	=23	=23
!	!	!	!	!	!	!	!	!	!	!	!	!	!LO:LB:g=original	!	!	!
8G\L	.	.	16B/LL	.	(8b\L	.	2G\	Sa-	2d\	Sa-	2g\	Sa-	2b\	Sa-	8r	8r
.	.	.	16d/	.	.	.	.	.	.	.	.	.	.	.	.	.
8G\	.	.	16B/	.	8dd\J)	.	.	.	.	.	.	.	.	.	8g/L	8dd\L
.	.	.	16d/JJ	.	.	.	.	.	.	.	.	.	.	.	.	.
8G\	.	.	16B/LL	.	8r	.	.	.	.	.	.	.	.	.	8g/	8dd\
.	.	.	16d/	.	.	.	.	.	.	.	.	.	.	.	.	.
8G\	.	.	16B/	.	8dd\	.	.	.	.	.	.	.	.	.	8g/J	8dd\J
.	.	.	16d/JJ	.	.	.	.	.	.	.	.	.	.	.	.	.
8F#X\	6 5	.	16c/LL	.	16dd\LL	.	4F#X\	-lu-	4d\	-lu-	4a\	-lu-	4cc\	-lu-	4dd\	4dd\
.	.	.	16d/	.	16cc\	.	.	.	.	.	.	.	.	.	.	.
8F#\J	.	.	16c/	.	16b\	.	.	.	.	.	.	.	.	.	.	.
.	.	.	16d/JJ	.	16a\JJ	.	.	.	.	.	.	.	.	.	.	.
=24	=24	=24	=24	=24	=24	=24	=24	=24	=24	=24	=24	=24	=24	=24	=24	=24
*	*	*	*tremolo	*	*	*	*	*	*	*	*	*	*	*	*	*
!	!	!	!	!	!	!	!LO:LB:g=original	!	!	!	!	!	!	!	!	!
8G\L	.	.	16B/LL	.	(8b\L	.	2G\	-ta-	2d\	-ta-	2g\	-ta-	2b\	-ta-	8r	8r
.	.	.	16d/	.	.	.	.	.	.	.	.	.	.	.	.	.
8G\	.	.	16B/	.	8gg\J)	.	.	.	.	.	.	.	.	.	8g/L	8dd\L
.	.	.	16d/	.	.	.	.	.	.	.	.	.	.	.	.	.
8G\	.	.	16B/	.	8r	.	.	.	.	.	.	.	.	.	8g/	8dd\
.	.	.	16d/	.	.	.	.	.	.	.	.	.	.	.	.	.
8G\	.	.	16B/	.	8gg\	.	.	.	.	.	.	.	.	.	8g/	8dd\
.	.	.	16d/	.	.	.	.	.	.	.	.	.	.	.	.	.
8B\	6	.	16B/	.	16gg\LL	.	4B\	-ri	4d\	-ri	4g\	-ri	4dd\	-ri	8g/	8dd\
.	.	.	16d/	.	16aa\	.	.	.	.	.	.	.	.	.	.	.
8B\J	.	.	16B/	.	16gg\	.	.	.	.	.	.	.	.	.	8g/J	8dd\J
.	.	.	16d/JJ	.	16ff\JJ	.	.	.	.	.	.	.	.	.	.	.
*	*	*	*Xtremolo	*	*	*	*	*	*	*	*	*	*	*	*	*
=25	=25	=25	=25	=25	=25	=25	=25	=25	=25	=25	=25	=25	=25	=25	=25	=25
!LO:TX:t=P:problem=mixed beam	!	!	!	!	!	!	!	!	!	!	!	!	!	!	!	!
!	!	!	!	!	!	!	!	!	!	!	!LO:LB:g=original	!	!	!	!	!
8c\L	6	.	8c/L	.	8ee\L	.	4c\	me-	4e\	me-	4a\	me-	4cc\	me-	4cc\	4ee\
8c\	.	.	8a/	.	16dd\L	.	.	.	.	.	.	.	.	.	.	.
.	.	.	.	.	16cc\JJ	.	.	.	.	.	.	.	.	.	.	.
8d\	4	.	8g/	.	8b\L	.	4d\	.	2d\	.	4g\	.	4b\	.	4dd\	4dd\
8d\	.	.	8a/	.	8gg\	.	.	.	.	.	.	.	.	.	.	.
8D/	#	.	8f#X/	.	8a\	.	4D/	.	.	.	4f#X\	.	4a\	.	4dd\	4dd\
8D/J	.	.	8a/J	.	8ff#X\J	.	.	.	.	.	.	.	.	.	.	.
=26	=26	=26	=26	=26	=26	=26	=26	=26	=26	=26	=26	=26	=26	=26	=26	=26
!	!	!	!	!	!	!	!	!	!LO:LB:g=original	!	!	!	!	!	!	!
4G\	.	.	4b\	.	4gg\	.	4G\	-o	4d\	-o	4g\	-o	4b\	-o	4g/	4dd\
4GG/	.	.	4b\	.	4gg\	.	4r	.	4r	.	4r	.	4r	.	4g/	4dd\
4r	.	.	4r	.	4r	.	4r	.	4r	.	4r	.	4r	.	4r	4r
=27	=27	=27	=27	=27	=27	=27	=27	=27	=27	=27	=27	=27	=27	=27	=27	=27
!LO:LB:g=original	!	!LO:DY:a:t=p.	!LO:LB:g=original	!LO:DY:a:t=p.	!LO:TX:a:i:t=Solo	!	!	!	!	!	!	!	!LO:TX:a:i:t=Solo	!	!	!
4G\	.	p	8B/L	p	(4.dd\	.	2.r	.	2.r	.	2.r	.	4.dd\	Qui-	2.r	2.r
.	.	.	8d/	.	.	.	.	.	.	.	.	.	.	.	.	.
4GG/	.	.	8B/	.	.	.	.	.	.	.	.	.	.	.	.	.
.	.	.	8d/	.	16ee\LL	.	.	.	.	.	.	.	16ee\LL	.	.	.
.	.	.	.	.	16ff#X\JJ)	.	.	.	.	.	.	.	16ff#X\JJ	.	.	.
4G\	.	.	8B/	.	(16gg\LL	.	.	.	.	.	.	.	16gg\LL	-a	.	.
.	.	.	.	.	16ff#\)	.	.	.	.	.	.	.	16ff#\JJ	.	.	.
.	.	.	8d/J	.	(16ee\	.	.	.	.	.	.	.	16ee\LL	res-	.	.
.	.	.	.	.	16dd\JJ)	.	.	.	.	.	.	.	16dd\JJ	.	.	.
=28	=28	=28	=28	=28	=28	=28	=28	=28	=28	=28	=28	=28	=28	=28	=28	=28
*	*	*	*tremolo	*	*	*	*	*	*	*	*	*	*	*	*	*
!	!	!	!	!	!LO:LB:g=original	!	!	!	!	!	!	!	!	!	!	!
4r	.	.	8B/L	.	(8.dd\L	.	2.r	.	2.r	.	2.r	.	8.dd\L	-pe-	2.r	2.r
.	.	.	8d/	.	.	.	.	.	.	.	.	.	.	.	.	.
.	.	.	.	.	16b\Jk)	.	.	.	.	.	.	.	16b\Jk	.	.	.
!	!	!	!	!	!	!	!	!	!	!	!	!	!LO:LB:g=original	!	!	!
4GG/	.	.	8B/	.	4g|</	.	.	.	.	.	.	.	4g\	-xit	.	.
.	.	.	8d/	.	.	.	.	.	.	.	.	.	.	.	.	.
4G\	.	.	8B/	.	8r	.	.	.	.	.	.	.	8r	.	.	.
.	.	.	8d/J	.	8g/	.	.	.	.	.	.	.	8g\	hu-	.	.
=29	=29	=29	=29	=29	=29	=29	=29	=29	=29	=29	=29	=29	=29	=29	=29	=29
4r	.	.	8c/L	.	8a\L	.	2.r	.	2.r	.	2.r	.	8a\L	-mi-	2.r	2.r
.	.	.	8d/	.	16b\L	.	.	.	.	.	.	.	16b\L	.	.	.
.	.	.	.	.	16cc\JJ	.	.	.	.	.	.	.	16cc\JJ	.	.	.
4F#X\	6 5	.	8c/	.	(4.dd\	.	.	.	.	.	.	.	4.dd\	.	.	.
.	.	.	8d/	.	.	.	.	.	.	.	.	.	.	.	.	.
4F#\	.	.	8c/	.	.	.	.	.	.	.	.	.	.	.	.	.
.	.	.	8d/J	.	8cc\)	.	.	.	.	.	.	.	8cc\	-li-	.	.
=30	=30	=30	=30	=30	=30	=30	=30	=30	=30	=30	=30	=30	=30	=30	=30	=30
4r	.	.	8B/L	.	8cc\L	.	2.r	.	2.r	.	2.r	.	8cc\L	-ta-	2.r	2.r
.	.	.	8d/	.	8b\J	.	.	.	.	.	.	.	8b\J	.	.	.
4G\	.	.	8B/	.	4b\	.	.	.	.	.	.	.	4b\	-tem	.	.
.	.	.	8d/	.	.	.	.	.	.	.	.	.	.	.	.	.
4GG/	.	.	8B/	.	4r	.	.	.	.	.	.	.	4r	.	.	.
.	.	.	8d/J	.	.	.	.	.	.	.	.	.	.	.	.	.
=31	=31	=31	=31	=31	=31	=31	=31	=31	=31	=31	=31	=31	=31	=31	=31	=31
4r	.	.	8B/L	.	(4.dd\	.	2.r	.	2.r	.	2.r	.	4.dd\	hu-	2.r	2.r
.	.	.	8d/	.	.	.	.	.	.	.	.	.	.	.	.	.
4G\	.	.	8B/	.	.	.	.	.	.	.	.	.	.	.	.	.
.	.	.	8d/	.	16ee\LL)	.	.	.	.	.	.	.	16ee\LL	.	.	.
.	.	.	.	.	16ff#X\JJ	.	.	.	.	.	.	.	16ff#X\JJ	.	.	.
4G\	.	.	8B/	.	(16gg\LL	.	.	.	.	.	.	.	16gg\LL	-mi-	.	.
.	.	.	.	.	16ff#\)	.	.	.	.	.	.	.	16ff#\JJ	.	.	.
.	.	.	8d/J	.	(16ee\	.	.	.	.	.	.	.	16ee\LL	-li-	.	.
.	.	.	.	.	16dd\JJ)	.	.	.	.	.	.	.	16dd\JJ	.	.	.
=32	=32	=32	=32	=32	=32	=32	=32	=32	=32	=32	=32	=32	=32	=32	=32	=32
4r	.	.	8B/L	.	(8.dd\L	.	2.r	.	2.r	.	2.r	.	8.dd\L	-ta-	2.r	2.r
.	.	.	8d/	.	.	.	.	.	.	.	.	.	.	.	.	.
.	.	.	.	.	16b\Jk)	.	.	.	.	.	.	.	16b\Jk	.	.	.
4G\	.	.	8B/	.	4g/	.	.	.	.	.	.	.	4g\	-tem	.	.
.	.	.	8d/	.	.	.	.	.	.	.	.	.	.	.	.	.
!	!	!	!	!	!	!	!	!	!	!	!	!	!LO:LB:g=original	!	!	!
4G\	.	.	8B/	.	8r	.	.	.	.	.	.	.	8r	.	.	.
.	.	.	8d/J	.	8g/	.	.	.	.	.	.	.	8g\	an-	.	.
*	*	*	*Xtremolo	*	*	*	*	*	*	*	*	*	*	*	*	*
=33	=33	=33	=33	=33	=33	=33	=33	=33	=33	=33	=33	=33	=33	=33	=33	=33
4r	.	.	8c/L	.	16a/LL	.	2.r	.	2.r	.	2.r	.	16a\LL	.	2.r	2.r
.	.	.	.	.	16g/	.	.	.	.	.	.	.	16g\	.	.	.
.	.	.	8d/	.	16a/	.	.	.	.	.	.	.	16a\	.	.	.
.	.	.	.	.	16b/JJ	.	.	.	.	.	.	.	16b\JJ	.	.	.
4F#X\	6 5	.	8A/	.	(8.cc\L	.	.	.	.	.	.	.	4cc\	-ci-	.	.
.	.	.	8d/	.	.	.	.	.	.	.	.	.	.	.	.	.
.	.	.	.	.	16dd\Jk)	.	.	.	.	.	.	.	.	.	.	.
4G\	.	.	8B/	.	16cc\LL	.	.	.	.	.	.	.	4b\	-le	.	.
.	.	.	.	.	(16b\	.	.	.	.	.	.	.	.	.	.	.
.	.	.	8d/J	.	16a\	.	.	.	.	.	.	.	.	.	.	.
.	.	.	.	.	16b\JJ)	.	.	.	.	.	.	.	.	.	.	.
=34	=34	=34	=34	=34	=34	=34	=34	=34	=34	=34	=34	=34	=34	=34	=34	=34
!	!	!	!	!	!LO:LB:g=original	!	!	!	!	!	!	!	!	!	!	!
4d\	4	.	8g/L	.	8b/L	.	2.r	.	2.r	.	2.r	.	4b\	su-	2.r	2.r
.	.	.	16f#X/L	.	16a/L	.	.	.	.	.	.	.	.	.	.	.
.	.	.	16g/JJ	.	16b/JJ	.	.	.	.	.	.	.	.	.	.	.
8D\L	3	.	8f#/L	.	4a/	.	.	.	.	.	.	.	4a\	-ae	.	.
8F#X\	.	.	8d/	.	.	.	.	.	.	.	.	.	.	.	.	.
8A\	.	.	8f#/	.	4r	.	.	.	.	.	.	.	4r	.	.	.
8F#\J	.	.	8a/J	.	.	.	.	.	.	.	.	.	.	.	.	.
=35	=35	=35	=35	=35	=35	=35	=35	=35	=35	=35	=35	=35	=35	=35	=35	=35
*	*	*	*tremolo	*	*	*	*	*	*	*	*	*	*	*	*	*
!	!	!	!LO:LB:g=original	!	!	!	!	!	!	!	!	!	!	!	!	!
4D\	#	.	8f#X/L	.	2ff#X\	.	2.r	.	2.r	.	2.r	.	2ff#X\	ec-	2.r	2.r
.	.	.	8a/	.	.	.	.	.	.	.	.	.	.	.	.	.
4d\	.	.	8f#/	.	.	.	.	.	.	.	.	.	.	.	.	.
.	.	.	8a/	.	.	.	.	.	.	.	.	.	.	.	.	.
4c\	.	.	8f#/	.	16gg\LL	.	.	.	.	.	.	.	4ff#\	-ce	.	.
.	.	.	.	.	(16ff#\	.	.	.	.	.	.	.	.	.	.	.
.	.	.	8a/J	.	16ee\	.	.	.	.	.	.	.	.	.	.	.
.	.	.	.	.	16ff#\JJ)	.	.	.	.	.	.	.	.	.	.	.
=36	=36	=36	=36	=36	=36	=36	=36	=36	=36	=36	=36	=36	=36	=36	=36	=36
!LO:LB:g=original	!	!	!	!	!	!	!	!	!	!	!	!	!	!	!	!
4B\	6	.	8d/L	.	8gg\L	.	2.r	.	2.r	.	2.r	.	8gg\L	E-	2.r	2.r
.	.	.	8g/	.	8dd\J	.	.	.	.	.	.	.	8dd\J	.	.	.
4B\	.	.	8d/	.	4dd\	.	.	.	.	.	.	.	4dd\	-nim	.	.
.	.	.	8g/	.	.	.	.	.	.	.	.	.	.	.	.	.
4B\	.	.	8d/	.	8r	.	.	.	.	.	.	.	8r	.	.	.
.	.	.	8g/J	.	8dd\	.	.	.	.	.	.	.	8dd\	ex	.	.
*	*	*	*Xtremolo	*	*	*	*	*	*	*	*	*	*	*	*	*
=37	=37	=37	=37	=37	=37	=37	=37	=37	=37	=37	=37	=37	=37	=37	=37	=37
4c\	6	.	8e/L	.	16dd\LL	.	2.r	.	2.r	.	2.r	.	16dd\LL	hoc	2.r	2.r
.	.	.	.	.	16cc\	.	.	.	.	.	.	.	16cc\JJ	.	.	.
.	.	.	8a/J	.	16ee\	.	.	.	.	.	.	.	16ee\LL	be-	.	.
.	.	.	.	.	16cc\JJ	.	.	.	.	.	.	.	16cc\JJ	.	.	.
4d\	4	.	4g/	.	4b\	.	.	.	.	.	.	.	4b\	-a-	.	.
4D\	#	.	4f#X/	.	4a\	.	.	.	.	.	.	.	4a\	.	.	.
=38	=38	=38	=38	=38	=38	=38	=38	=38	=38	=38	=38	=38	=38	=38	=38	=38
!	!	!	!	!	!	!LO:DY:a:t=for.	!	!	!	!	!	!	!	!	!	!
!	!	!	!	!	!	!	!	!	!	!	!	!	!LO:LB:g=original	!	!	!
4G\	.	.	4g/	.	8b\	f	2.r	.	2.r	.	2.r	.	8b\	-tam	2.r	2.r
.	.	.	.	.	4dd\	.	.	.	.	.	.	.	8dd\	me	.	.
4r	.	.	4r	.	.	.	.	.	.	.	.	.	4dd\	di-	.	.
.	.	.	.	.	4dd\	.	.	.	.	.	.	.	.	.	.	.
!LO:TX:a:i:t=Tutti	!	!	!	!	!	!	!	!	!	!	!	!	!	!	!	!
4r	.	.	4r	.	.	.	.	.	.	.	.	.	4dd\	-cent	.	.
.	.	.	.	.	[<8dd\	.	.	.	.	.	.	.	.	.	.	.
=39	=39	=39	=39	=39	=39	=39	=39	=39	=39	=39	=39	=39	=39	=39	=39	=39
!	!	!	!	!LO:DY:a:t=f.	!	!	!	!	!	!	!	!	!	!	!	!
8r	.	.	8r	f	8dd\]	.	8r	.	8r	.	8r	.	2.dd\	om-	8r	8r
8G\L	5_ 3	.	8b\L	.	4dd\	.	8G\L	om-	8d\	om-	8b\L	om-	.	.	8dd\	8dd\
8F#X\	x 3	.	8a\	.	.	.	8F#X\	.	2d\	.	8a\	.	.	.	4dd\	4dd\
8G\	x 3	.	8b\	.	4dd\	.	8G\	.	.	.	8b\	.	.	.	.	.
8A\	x 3	.	8cc\	.	.	.	8A\	.	.	.	8cc\	.	.	.	4dd\	4dd\
8F#\J	x 3	.	8a\J	.	[<8dd\	.	8F#\J	.	.	.	8a\J	.	.	.	.	.
=40	=40	=40	=40	=40	=40	=40	=40	=40	=40	=40	=40	=40	=40	=40	=40	=40
!	!	!	!	!	!	!	!	!	!	!	!	!	!	!	!	!LO:LB:g=original
4G\	.	.	4b\	.	8dd\]	.	4G\	-nes	4d\	-nes	4b\	-nes	8dd\	-nes	4g/	4dd\
.	.	.	.	.	4dd\	.	.	.	.	.	.	.	8dd\	me	.	.
4r	.	.	4r	.	.	.	4r	.	4r	.	4r	.	4dd\	di-	4r	4r
.	.	.	.	.	4dd\	.	.	.	.	.	.	.	.	.	.	.
4r	.	.	4r	.	.	.	4r	.	4r	.	4r	.	4dd\	-cent	4r	4r
.	.	.	.	.	[<8dd\	.	.	.	.	.	.	.	.	.	.	.
=41	=41	=41	=41	=41	=41	=41	=41	=41	=41	=41	=41	=41	=41	=41	=41	=41
!	!	!	!	!	!	!	!	!	!	!	!	!	!	!	!LO:LB:g=original	!
!	!	!	!	!	!LO:LB:g=original	!	!	!	!	!	!	!	!	!	!	!
8r	.	.	8r	.	8dd\]	.	8r	.	8r	.	8r	.	2.dd\	Om-	8r	8r
*	*	*	*	*	*	*	*	*	*	*ij	*	*	*	*	*	*
8G\L	5_ 3	.	8b\L	.	4dd\	.	8G\	om-	8d\	om-	8b\L	om-	.	.	8dd\	8dd\
!	!	!	!	!	!	!	!LO:LB:g=original	!	!	!	!	!	!	!	!	!
8F#X\	x 3	.	8a\	.	.	.	8F#X\L	.	2d\	.	8a\	.	.	.	4dd\	4dd\
8G\	x 3	.	8b\	.	4dd\	.	8G\	.	.	.	8b\	.	.	.	.	.
8A\	x 3	.	8cc\	.	.	.	8A\	.	.	.	8cc\	.	.	.	4dd\	4dd\
8F#\J	x 3	.	8a\J	.	[<8dd\	.	8F#\J	.	.	.	8a\J	.	.	.	.	.
=42	=42	=42	=42	=42	=42	=42	=42	=42	=42	=42	=42	=42	=42	=42	=42	=42
4G\	.	.	8b\L	.	8dd\L]	.	4G\	-nes	4d\	-nes	4b\	-nes	4dd\	-nes	4g/	4dd\
*	*	*	*	*	*	*	*	*	*	*Xij	*	*	*	*	*	*
.	.	.	16cc\L	.	16ee\L	.	.	.	.	.	.	.	.	.	.	.
.	.	.	16a\JJ	.	16ff#X\JJ	.	.	.	.	.	.	.	.	.	.	.
!	!	!	!LO:LB:g=original	!	!	!	!	!	!	!	!LO:LB:g=original	!	!	!	!	!
8r	.	.	8b\L	.	8gg\L	.	8r	.	8r	.	8r	.	8r	.	8r	8r
!	!	!	!	!	!	!	!	!	!	!	!	!	!	!	!LO:TX:t=P:problem=mixed beam	!
8G\L	6\ 3	.	8b\	.	8gg\	.	8G\L	ge-	4d\	ge-	8b\L	ge-	8gg\L	Ge-	8dd\L	8dd\L
8A\	3	.	8cc\	.	8ffn\	.	8A\J	.	.	.	8cc\	-ne-	8ff#X\	-ne-	8dd\	8dd\
!	!	!	!LO:SIC:v:s=8dd\J	!	!	!	!	!	!	!	!	!	!	!	!	!
8B\J	r5n 3	.	8ee\J	.	8ff\J	.	8B\	-ne-	8g\	-ne-	8dd\J	-ra-	8ffn\J	-ra-	8g/J	8dd\J
=43	=43	=43	=43	=43	=43	=43	=43	=43	=43	=43	=43	=43	=43	=43	=43	=43
!LO:TX:t=P:problem=mixed beam	!	!	!	!	!	!	!	!	!	!	!	!	!	!	!	!
!LO:TX:t=P:problem=niepewny odczyt cyfrowania	!	!	!	!	!	!	!	!	!	!	!	!	!LO:LB:g=original	!	!	!
8c\L	6 3	.	8cc\L	.	8ee\L	.	8c\	-ra-	8e\	-ra-	8cc\	-ti-	8ee\	.	4cc\	4ee\
8c\	.	.	16b\L	.	16dd\L	.	8c\	-ti-	8e\	-ti-	8cc\	-o-	8aa\	-ti-	.	.
.	.	.	16a\JJ	.	16cc\JJ	.	.	.	.	.	.	.	.	.	.	.
!	!	!	!	!	!	!	!	!	!LO:LB:g=original	!	!	!	!	!	!	!
8d\	4	.	4g/	.	4b\	.	4d\	-o-	2d\	-o-	4b\	.	4gg\	-o-	4dd\	4dd\
8d\	.	.	.	.	.	.	.	.	.	.	.	.	.	.	.	.
8D/	#	.	4f#X/	.	4a\	.	4D/	.	.	.	4a\	.	4ff#X\	.	4dd\	4dd\
8D/J	.	.	.	.	.	.	.	.	.	.	.	.	.	.	.	.
=44	=44	=44	=44	=44	=44	=44	=44	=44	=44	=44	=44	=44	=44	=44	=44	=44
!LO:TX:a:i:t=Solo	!	!	!	!	!	!	!	!	!	!	!	!	!	!	!	!
!LO:LB:g=original	!	!	!	!	!	!	!	!	!	!	!	!	!	!	!	!
4G\	.	.	8.g/L	.	8.b\L	.	4G\	-nes	4d\	-nes	4b\	-nes	4gg\	-nes	4g/	4dd\
.	.	.	16a/Jk	.	16cc\Jk	.	.	.	.	.	.	.	.	.	.	.
4GG/	.	.	8b\L	.	16dd\LL	.	4r	.	4r	.	4r	.	4r	.	4g/	4dd\
.	.	.	.	.	16ee\	.	.	.	.	.	.	.	.	.	.	.
.	.	.	8b\J	.	16ff#X\	.	.	.	.	.	.	.	.	.	.	.
.	.	.	.	.	16gg\JJ	.	.	.	.	.	.	.	.	.	.	.
8r	.	.	16cc\LL	.	16aa\LL	.	4r	.	4r	.	4r	.	4r	.	8r	8r
.	.	.	16b\	.	16gg\	.	.	.	.	.	.	.	.	.	.	.
8G\	.	.	16a\	.	16ff#\	.	.	.	.	.	.	.	.	.	8g/	8dd\
.	.	.	16b\JJ	.	16gg\JJ	.	.	.	.	.	.	.	.	.	.	.
=45	=45	=45	=45	=45	=45	=45	=45	=45	=45	=45	=45	=45	=45	=45	=45	=45
4c\	6	.	8cc\L	.	8ee\L	.	2.r	.	2.r	.	2.r	.	2.r	.	4cc\	4ee\
.	.	.	16b\L	.	16dd\L	.	.	.	.	.	.	.	.	.	.	.
.	.	.	16a\JJ	.	16cc\JJ	.	.	.	.	.	.	.	.	.	.	.
4d\	4	.	8g/L	.	8b\L	.	.	.	.	.	.	.	.	.	4dd\	4dd\
.	.	.	8b/	.	8gg\	.	.	.	.	.	.	.	.	.	.	.
4D\	#	.	8f#X/	.	8a\	.	.	.	.	.	.	.	.	.	4dd\	4dd\
.	.	.	8a/J	.	8ff#X\J	.	.	.	.	.	.	.	.	.	.	.
=46	=46	=46	=46	=46	=46	=46	=46	=46	=46	=46	=46	=46	=46	=46	=46	=46
!	!	!	!	!LO:DY:a:t=p.	!	!LO:DY:a:t=p.	!	!	!	!	!	!	!	!	!	!
4G\	.	.	8g/L	p	4gg\	p	2.r	.	2.r	.	2.r	.	4r	.	4g/	4dd\
.	.	.	8b/	.	.	.	.	.	.	.	.	.	.	.	.	.
!	!	!	!	!	!	!	!	!	!	!	!	!	!LO:TX:a:i:t=Solo	!	!	!
4r	.	.	8g/	.	4dd\	.	.	.	.	.	.	.	4dd\	Qui-	4r	4r
.	.	.	8b/	.	.	.	.	.	.	.	.	.	.	.	.	.
4r	.	.	8g/	.	4dd\	.	.	.	.	.	.	.	4dd\	-a	4r	4r
.	.	.	8b/J	.	.	.	.	.	.	.	.	.	.	.	.	.
=47	=47	=47	=47	=47	=47	=47	=47	=47	=47	=47	=47	=47	=47	=47	=47	=47
*	*	*	*tremolo	*	*	*	*	*	*	*	*	*	*	*	*	*
!	!	!	!	!	!	!	!	!	!	!	!	!	!	!	!	!LO:LB:g=original
!	!	!	!	!	!LO:LB:g=original	!	!	!	!	!	!	!	!	!	!	!
4D\	#	.	8f#X/L	.	(4.dd\	.	2.r	.	2.r	.	2.r	.	4.dd\	fe-	2.r	2.r
.	.	.	8a/	.	.	.	.	.	.	.	.	.	.	.	.	.
4r	.	.	8f#/	.	.	.	.	.	.	.	.	.	.	.	.	.
.	.	.	8a/	.	8ee\)	.	.	.	.	.	.	.	8ee\	.	.	.
4r	.	.	8f#/	.	16dd\LL	.	.	.	.	.	.	.	16dd\LL	.	.	.
.	.	.	.	.	(16cc\	.	.	.	.	.	.	.	16cc\	.	.	.
.	.	.	8a/J	.	16b\	.	.	.	.	.	.	.	16b\	.	.	.
.	.	.	.	.	16cc\JJ)	.	.	.	.	.	.	.	16cc\JJ	.	.	.
=48	=48	=48	=48	=48	=48	=48	=48	=48	=48	=48	=48	=48	=48	=48	=48	=48
!	!	!	!LO:LB:g=original	!	!	!	!	!	!	!	!	!	!	!	!	!
4G\	.	.	8g/L	.	4b\	.	2.r	.	2.r	.	2.r	.	4b\	-cit	2.r	2.r
.	.	.	8b/	.	.	.	.	.	.	.	.	.	.	.	.	.
4r	.	.	8g/	.	4dd\	.	.	.	.	.	.	.	4dd\	mi-	.	.
.	.	.	8b/	.	.	.	.	.	.	.	.	.	.	.	.	.
4r	.	.	8g/	.	4dd\	.	.	.	.	.	.	.	4dd\	-hi	.	.
.	.	.	8b/J	.	.	.	.	.	.	.	.	.	.	.	.	.
=49	=49	=49	=49	=49	=49	=49	=49	=49	=49	=49	=49	=49	=49	=49	=49	=49
!	!	!	!	!	!	!	!	!	!	!	!	!	!LO:PB:g=original	!	!	!
4D\	#	.	8f#X/L	.	(4.dd\	.	2.r	.	2.r	.	2.r	.	4.dd\	ma-	2.r	2.r
.	.	.	8a/	.	.	.	.	.	.	.	.	.	.	.	.	.
4r	.	.	8f#/	.	.	.	.	.	.	.	.	.	.	.	.	.
.	.	.	8a/	.	8ee\)	.	.	.	.	.	.	.	8ee\	.	.	.
4r	.	.	8f#/	.	16dd\LL	.	.	.	.	.	.	.	16dd\LL	.	.	.
.	.	.	.	.	(16cc\	.	.	.	.	.	.	.	16cc\	.	.	.
.	.	.	8a/J	.	16b\	.	.	.	.	.	.	.	16b\	.	.	.
.	.	.	.	.	16cc\JJ)	.	.	.	.	.	.	.	16cc\JJ	.	.	.
*	*	*	*Xtremolo	*	*	*	*	*	*	*	*	*	*	*	*	*
=50	=50	=50	=50	=50	=50	=50	=50	=50	=50	=50	=50	=50	=50	=50	=50	=50
!	!	!	!	!LO:DY:a	!	!	!	!	!	!	!	!	!	!	!	!
4G\	.	.	4d/	f	4b\	.	2.r	.	2.r	.	2.r	.	4b\	-gna	2.r	2.r
4r	.	.	4d/	.	(8b\L	.	.	.	.	.	.	.	8b\L	qui	.	.
.	.	.	.	.	8a\)	.	.	.	.	.	.	.	8a\J	.	.	.
4r	.	.	4r	.	(8b\	.	.	.	.	.	.	.	8b\L	po-	.	.
.	.	.	.	.	8cc\J)	.	.	.	.	.	.	.	8cc\J	.	.	.
=51	=51	=51	=51	=51	=51	=51	=51	=51	=51	=51	=51	=51	=51	=51	=51	=51
4r	.	.	8B/L	.	(8dd\L	.	2.r	.	2.r	.	2.r	.	8dd\L	-tens	2.r	2.r
.	.	.	8d/	.	8b\J)	.	.	.	.	.	.	.	8b\J	.	.	.
4BB/	6	.	8B/	.	(4.g/	.	.	.	.	.	.	.	4.g\	est	.	.
.	.	.	8d/	.	.	.	.	.	.	.	.	.	.	.	.	.
4BB/	.	.	8B/	.	.	.	.	.	.	.	.	.	.	.	.	.
.	.	.	8d/J	.	8g#X/)	.	.	.	.	.	.	.	8g#X\	et	.	.
=52	=52	=52	=52	=52	=52	=52	=52	=52	=52	=52	=52	=52	=52	=52	=52	=52
*	*	*	*tremolo	*	*	*	*	*	*	*	*	*	*	*	*	*
4r	.	.	8c/L	.	(8b/L	.	2.r	.	2.r	.	2.r	.	8b\L	Sanc-	2.r	2.r
.	.	.	8d/	.	8a/J)	.	.	.	.	.	.	.	8a\J	.	.	.
4C/	6	.	8c/	.	(4.a/	.	.	.	.	.	.	.	(4.a\	-tum	.	.
.	.	.	8d/	.	.	.	.	.	.	.	.	.	.	.	.	.
4C/	.	.	8c/	.	.	.	.	.	.	.	.	.	.	.	.	.
.	.	.	8d/J	.	16b/LL)	.	.	.	.	.	.	.	16b\LL)	.	.	.
!	!	!	!	!	!LO:TX:a:i:t=Verte Cito	!	!	!	!	!	!	!	!	!	!	!
.	.	.	.	.	16cc/JJ	.	.	.	.	.	.	.	16cc\JJ	.	.	.
*	*	*	*Xtremolo	*	*	*	*	*	*	*	*	*	*	*	*	*
=53	=53	=53	=53	=53	=53	=53	=53	=53	=53	=53	=53	=53	=53	=53	=53	=53
!	!	!	!	!	!	!	!	!	!	!	!	!	!LO:LB:g=original	!	!	!
!LO:LB:g=original	!	!	!	!	!LO:PB:g=original	!	!	!	!	!	!	!	!	!	!	!
4D\	4	.	8d/L	.	8b\L	.	2.r	.	2.r	.	2.r	.	8b\	no-	2.r	2.r
.	.	.	8g/	.	16a\L	.	.	.	.	.	.	.	16a\LL	-men	.	.
.	.	.	.	.	16b\JJ	.	.	.	.	.	.	.	16b\JJ	.	.	.
4D\	#	.	8b/	.	8dd\L	.	.	.	.	.	.	.	8dd\L	e-	.	.
.	.	.	8a/	.	8cc\	.	.	.	.	.	.	.	8cc\	.	.	.
4D\	.	.	8g/	.	8b\	.	.	.	.	.	.	.	8b\	.	.	.
.	.	.	8f#X/J	.	8a\J	.	.	.	.	.	.	.	8a\J	.	.	.
=54	=54	=54	=54	=54	=54	=54	=54	=54	=54	=54	=54	=54	=54	=54	=54	=54
*tremolo	*	*	*	*	*	*	*	*	*	*	*	*	*	*	*	*
!LO:TX:a:i:t=Tutti	!	!	!	!LO:DY:a:t=for.	!	!LO:DY:a:t=f.	!	!	!	!	!	!	!	!	!	!
!	!	!	!	!	!	!	!LO:LB:g=original	!	!	!	!	!	!	!	!	!
8G\L	.	.	16B/LL	f	4b\	f	4r	.	4r	.	4r	.	4b\	-jus	4g/	4dd\
.	.	.	16d/	.	.	.	.	.	.	.	.	.	.	.	.	.
8G\	.	.	16B/	.	.	.	.	.	.	.	.	.	.	.	.	.
.	.	.	16d/JJ	.	.	.	.	.	.	.	.	.	.	.	.	.
8G\	.	.	16B/LL	.	8r	.	4G\	et	4B\	et	4g\	et	4dd\	Et	4g/	4dd\
.	.	.	16d/	.	.	.	.	.	.	.	.	.	.	.	.	.
8G\	.	.	16B/	.	8g\L	.	.	.	.	.	.	.	.	.	.	.
.	.	.	16d/JJ	.	.	.	.	.	.	.	.	.	.	.	.	.
8G\	.	.	16B/LL	.	8b\	.	4G\	mi-	4B\	mi-	4g\	mi-	4dd\	mi-	4r	4r
.	.	.	16d/	.	.	.	.	.	.	.	.	.	.	.	.	.
8G\J	.	.	16B/	.	8dd\J	.	.	.	.	.	.	.	.	.	.	.
.	.	.	16d/JJ	.	.	.	.	.	.	.	.	.	.	.	.	.
=55	=55	=55	=55	=55	=55	=55	=55	=55	=55	=55	=55	=55	=55	=55	=55	=55
*	*	*	*tremolo	*	*	*	*	*	*	*	*	*	*	*	*	*
!	!	!	!LO:LB:g=original	!	!	!	!	!	!	!	!	!	!	!	!LO:LB:g=original	!
8Fn\L	.	.	16B/LL	.	4gg 4b 4d/	.	2Fn\	-Se-	2B\	-Se-	2g\	-Se-	2dd\	-Se-	4g/	4dd\
.	.	.	16d/	.	.	.	.	.	.	.	.	.	.	.	.	.
8F\	.	.	16B/	.	.	.	.	.	.	.	.	.	.	.	.	.
.	.	.	16d/	.	.	.	.	.	.	.	.	.	.	.	.	.
8F\	.	.	16B/	.	8r	.	.	.	.	.	.	.	.	.	4g/	4dd\
.	.	.	16d/	.	.	.	.	.	.	.	.	.	.	.	.	.
8F\	.	.	16B/	.	8g\L	.	.	.	.	.	.	.	.	.	.	.
.	.	.	16d/	.	.	.	.	.	.	.	.	.	.	.	.	.
8F\	.	.	16B/	.	8b\	.	4F\	-ri-	4B\	-ri-	4g\	-ri-	4dd\	-ri-	4r	4r
.	.	.	16d/	.	.	.	.	.	.	.	.	.	.	.	.	.
8F\J	.	.	16B/	.	8dd\J	.	.	.	.	.	.	.	.	.	.	.
.	.	.	16d/JJ	.	.	.	.	.	.	.	.	.	.	.	.	.
*Xtremolo	*	*	*	*	*	*	*	*	*	*	*	*	*	*	*	*
=56	=56	=56	=56	=56	=56	=56	=56	=56	=56	=56	=56	=56	=56	=56	=56	=56
8E\L	6	.	16c/LL	.	4cc\	.	4.E\	-cor-	4.c\	-cor-	4.g\	-cor-	4.ee\	-cor-	4cc\	4ee\
.	.	.	16d/	.	.	.	.	.	.	.	.	.	.	.	.	.
8E\	.	.	16c/	.	.	.	.	.	.	.	.	.	.	.	.	.
.	.	.	16d/	.	.	.	.	.	.	.	.	.	.	.	.	.
8E\	.	.	16c/	.	8r	.	.	.	.	.	.	.	.	.	4cc\	4ee\
.	.	.	16d/	.	.	.	.	.	.	.	.	.	.	.	.	.
8E\	.	.	16c/	.	8g\L	.	8E\	-di-	8c\	-di-	8g\	-di-	8ee\	-di-	.	.
.	.	.	16d/	.	.	.	.	.	.	.	.	.	.	.	.	.
8C\	.	.	16c/	.	8cc\	.	4C/	-a	4c\	-a	4g\	-a	4ee\	-a	4cc\	4ee\
.	.	.	16d/	.	.	.	.	.	.	.	.	.	.	.	.	.
8C\J	.	.	16c/	.	8ee\J	.	.	.	.	.	.	.	.	.	.	.
.	.	.	16d/JJ	.	.	.	.	.	.	.	.	.	.	.	.	.
*	*	*	*Xtremolo	*	*	*	*	*	*	*	*	*	*	*	*	*
=57	=57	=57	=57	=57	=57	=57	=57	=57	=57	=57	=57	=57	=57	=57	=57	=57
!	!	!	!	!	!	!	!	!	!	!	!LO:LB:g=original	!	!	!	!	!
8GG/L	.	.	16d/LL	.	(8ee\L	.	8GG/	e-	8d\	e-	8g\	e-	8ff\	e-	4g/	4dd\
.	.	.	16f/	.	.	.	.	.	.	.	.	.	.	.	.	.
8GG/	.	.	16d/	.	8dd\)	.	8GG/	-ius	8d\	-ius	8g\	-jus	8ff\	-jus	.	.
.	.	.	16f/JJ	.	.	.	.	.	.	.	.	.	.	.	.	.
8BB/	6 5	.	16d/LL	.	8dd|>\	.	4BB/	a	4d\	a-	4g\	a	4ff\	a-	4g/	4dd\
.	.	.	16f/	.	.	.	.	.	.	.	.	.	.	.	.	.
8BB/	.	.	16d/	.	8dd|>\J	.	.	.	.	.	.	.	.	.	.	.
.	.	.	16f/JJ	.	.	.	.	.	.	.	.	.	.	.	.	.
8C/	.	.	16e/LL	.	16cc\LL	.	4C/	pro-	4c\	-pro-	4g\	pro-	4ee\	-pro-	4cc\	4ee\
.	.	.	16g/	.	16ee\	.	.	.	.	.	.	.	.	.	.	.
8C/J	.	.	16f/	.	16dd\	.	.	.	.	.	.	.	.	.	.	.
.	.	.	16e/JJ	.	16cc\JJ	.	.	.	.	.	.	.	.	.	.	.
=58	=58	=58	=58	=58	=58	=58	=58	=58	=58	=58	=58	=58	=58	=58	=58	=58
!LO:TX:t=P:problem=mixed beam	!	!	!	!	!	!	!	!	!	!	!	!	!	!	!	!
!	!	!	!	!	!	!	!	!	!LO:LB:g=original	!	!	!	!LO:LB:g=original	!	!	!
8G\L	4	.	8e/L	.	8cc\L	.	8G\	-ge-	8c\	-ge-	8g\	-ge-	8ee\	-ge-	4cc\	4ee\
8G\	3	.	16d/L	.	16b\L	.	8G\	-ni-	8c\	-ni-	8g\	-ni-	8ee\	-ni-	.	.
.	.	.	16e/JJ	.	16cc\JJ	.	.	.	.	.	.	.	.	.	.	.
!	!	!	!	!	!	!	!LO:LB:g=original	!	!	!	!	!	!	!	!	!
8GG/	.	.	8d/L	.	16b\LL	.	4G\	-e	4B\	-e	4g\	-e	4dd\	-e	4g/	4dd\
.	.	.	.	.	16dd\	.	.	.	.	.	.	.	.	.	.	.
8GG/	.	.	8d/	.	16ee\	.	.	.	.	.	.	.	.	.	.	.
.	.	.	.	.	16ff\JJ	.	.	.	.	.	.	.	.	.	.	.
8B\	6	.	8d/	.	16gg\LL	.	8B\	in	8d\	in	8g\	im	8dd\	im	4g/	4dd\
.	.	.	.	.	16aa\	.	.	.	.	.	.	.	.	.	.	.
8B\J	.	.	8d/J	.	16gg\	.	8B\	pro-	8d\	pro-	8g\	pro-	8dd\	pro-	.	.
.	.	.	.	.	16ff\JJ	.	.	.	.	.	.	.	.	.	.	.
=59	=59	=59	=59	=59	=59	=59	=59	=59	=59	=59	=59	=59	=59	=59	=59	=59
*tremolo	*	*	*tremolo	*	*	*	*	*	*	*	*	*	*	*	*	*
!	!	!	!	!	!LO:LB:g=original	!	!	!	!	!	!	!	!	!	!	!
8c\L	.	.	16e/LL	.	16ee\LL	.	4.c\	-ge-	4.c\	-ge-	4.g\	-ge-	4.ee\	-ge-	2.cc\	2.ee\
.	.	.	16g/	.	16dd\	.	.	.	.	.	.	.	.	.	.	.
8c\	.	.	16e/	.	16ee\	.	.	.	.	.	.	.	.	.	.	.
.	.	.	16g/	.	16ff\JJ	.	.	.	.	.	.	.	.	.	.	.
8c\	.	.	16e/	.	(8.ee\L	.	.	.	.	.	.	.	.	.	.	.
.	.	.	16g/	.	.	.	.	.	.	.	.	.	.	.	.	.
8c\	.	.	16e/	.	.	.	8c\	-ni-	8c\	-ni-	8g\	-ni-	8ee\	-ni-	.	.
.	.	.	16g/	.	16ccc\K)	.	.	.	.	.	.	.	.	.	.	.
8c\	.	.	16e/	.	(8.ee\	.	8c\	-es	8c\	-es	8g\	-e	8ee\	-ens	.	.
.	.	.	16g/	.	.	.	.	.	.	.	.	.	.	.	.	.
8c\J	.	.	16e/	.	.	.	8c\	ti-	8c\	ti-	8g\	ti-	8ee\	ti-	.	.
.	.	.	16g/JJ	.	16ccc\Jk)	.	.	.	.	.	.	.	.	.	.	.
=60	=60	=60	=60	=60	=60	=60	=60	=60	=60	=60	=60	=60	=60	=60	=60	=60
8A\L	.	.	16e/LL	.	16ee\LL	.	4.A\	-men-	4.c\	-men-	4.a\	-men-	4.ee\	-men-	2.cc\	2.ee\
.	.	.	16cc/	.	16dd\	.	.	.	.	.	.	.	.	.	.	.
8A\	.	.	16e/	.	16ee\	.	.	.	.	.	.	.	.	.	.	.
.	.	.	16cc/	.	16ff\JJ	.	.	.	.	.	.	.	.	.	.	.
8A\	.	.	16e/	.	(8.ee\L	.	.	.	.	.	.	.	.	.	.	.
.	.	.	16cc/	.	.	.	.	.	.	.	.	.	.	.	.	.
8A\	.	.	16e/	.	.	.	8A\	-ti-	8c\	-ti-	8a\	-ti-	8ee\	-ti-	.	.
.	.	.	16cc/	.	16ccc\K)	.	.	.	.	.	.	.	.	.	.	.
8A\	.	.	16e/	.	(8.ee\	.	4A\	-bus	4c\	-bus	4a\	-bus	4ee\	-bus	.	.
.	.	.	16cc/	.	.	.	.	.	.	.	.	.	.	.	.	.
8A\J	.	.	16e/	.	.	.	.	.	.	.	.	.	.	.	.	.
.	.	.	16cc/JJ	.	16ccc\Jk)	.	.	.	.	.	.	.	.	.	.	.
*Xtremolo	*	*	*Xtremolo	*	*	*	*	*	*	*	*	*	*	*	*	*
=61	=61	=61	=61	=61	=61	=61	=61	=61	=61	=61	=61	=61	=61	=61	=61	=61
!LO:TX:t=P:problem=mixed beam	!	!	!	!	!	!	!	!	!	!	!	!	!	!	!	!
!LO:LB:g=original	!	!	!	!	!	!	!	!	!	!	!LO:LB:g=original	!	!	!	!	!
8F\L	6	.	16dd\LL	.	8aa\L	.	4F\	e-	4d\	e-	4a\	e-	4ff\	e-	4dd\	4ff\
.	.	.	16ff\	.	.	.	.	.	.	.	.	.	.	.	.	.
8F\	.	.	16ee\	.	16gg\L	.	.	.	.	.	.	.	.	.	.	.
.	.	.	16dd\JJ	.	16ff\JJ	.	.	.	.	.	.	.	.	.	.	.
8G\	4	.	4cc\	.	4ee\	.	4G\	.	4c\	.	2g\	.	4ee\	.	4cc\	4ee\
8G\	.	.	.	.	.	.	.	.	.	.	.	.	.	.	.	.
8GG/	3	.	4b\	.	4dd\	.	4GG/	.	4B\	.	.	.	4dd\	.	4g/	4dd\
8GG/J	.	.	.	.	.	.	.	.	.	.	.	.	.	.	.	.
=62	=62	=62	=62	=62	=62	=62	=62	=62	=62	=62	=62	=62	=62	=62	=62	=62
!	!	!	!	!	!	!	!	!	!LO:LB:g=original	!	!	!	!	!	!	!
!	!	!	!LO:LB:g=original	!	!	!	!LO:LB:g=original	!	!	!	!	!	!	!	!	!
4C/	.	.	8.cc\L	.	8.ee\L	.	4C/	-um	4c\	-um	4g\	-um	4ee\	-um	4e/	4cc\
.	.	.	16dd\Jk	.	16ff\Jk	.	.	.	.	.	.	.	.	.	.	.
4C/	.	.	16ff\LL	.	16aa\LL	.	4r	.	4r	.	4r	.	4r	.	4e/	4cc\
.	.	.	16ee\	.	16gg\	.	.	.	.	.	.	.	.	.	.	.
.	.	.	16dd\	.	16ff\	.	.	.	.	.	.	.	.	.	.	.
.	.	.	16ee\JJ	.	16gg\JJ	.	.	.	.	.	.	.	.	.	.	.
8r	.	.	8cc\L	.	16ff\LL	.	4r	.	4r	.	4r	.	4r	.	4r	4r
.	.	.	.	.	16ee\	.	.	.	.	.	.	.	.	.	.	.
!LO:TX:a:i:t=Solo	!	!	!	!	!	!	!	!	!	!	!	!	!	!	!	!
8E\	.	.	8g\J	.	16dd\	.	.	.	.	.	.	.	.	.	.	.
.	.	.	.	.	16cc\JJ	.	.	.	.	.	.	.	.	.	.	.
=63	=63	=63	=63	=63	=63	=63	=63	=63	=63	=63	=63	=63	=63	=63	=63	=63
!	!	!	!	!	!	!	!	!	!	!	!	!	!LO:LB:g=original	!	!	!
4F\	6	.	8a/L	.	16dd\LL	.	2.r	.	2.r	.	2.r	.	2.r	.	2.r	2.r
.	.	.	.	.	16ff\	.	.	.	.	.	.	.	.	.	.	.
.	.	.	8f/	.	16ee\	.	.	.	.	.	.	.	.	.	.	.
.	.	.	.	.	16dd\JJ	.	.	.	.	.	.	.	.	.	.	.
!	!	!	!	!	!LO:TX:t=P:problem=mixed beam	!	!	!	!	!	!	!	!	!	!	!
4G\	4	.	8e/	.	8cc\L	.	.	.	.	.	.	.	.	.	.	.
.	.	.	8g/	.	8ee\	.	.	.	.	.	.	.	.	.	.	.
4GG/	3	.	8f/	.	8g/	.	.	.	.	.	.	.	.	.	.	.
.	.	.	8d/J	.	8b/J	.	.	.	.	.	.	.	.	.	.	.
=64	=64	=64	=64	=64	=64	=64	=64	=64	=64	=64	=64	=64	=64	=64	=64	=64
!	!	!	!	!	!LO:LB:g=original	!	!	!	!	!	!	!	!	!	!	!
4C/	.	.	4e/	.	4cc\	.	8r	.	2.r	.	2.r	.	2.r	.	2.r	2.r
!	!	!	!	!	!	!	!LO:TX:a:i:t=Solo	!	!	!	!	!	!	!	!	!
.	.	.	.	.	.	.	8C/	Fe-	.	.	.	.	.	.	.	.
4C/	.	.	4e/	.	4cc\	.	8E\L	-cit	.	.	.	.	.	.	.	.
.	.	.	.	.	.	.	8C\J	.	.	.	.	.	.	.	.	.
4r	.	.	4r	.	4r	.	8E\L	po-	.	.	.	.	.	.	.	.
.	.	.	.	.	.	.	8G\J	.	.	.	.	.	.	.	.	.
=65	=65	=65	=65	=65	=65	=65	=65	=65	=65	=65	=65	=65	=65	=65	=65	=65
8r	.	.	8r	.	8r	.	8c\	-ten-	2.r	.	2.r	.	2.r	.	2.r	2.r
(16C/LL	.	.	16c/LL	.	16c/LL	.	8C/	-ti-	.	.	.	.	.	.	.	.
16BB/JJ)	.	.	16B/JJ	.	16B/JJ	.	.	.	.	.	.	.	.	.	.	.
8C|>\L	.	.	8c/L	.	8c|</L	.	4C/	-a	.	.	.	.	.	.	.	.
8E|>\	.	.	8e/	.	8e|</	.	.	.	.	.	.	.	.	.	.	.
8C|>\	.	.	8c/	.	8c|</	.	8r	.	.	.	.	.	.	.	.	.
8E|>\J	.	.	8e/J	.	8e|</J	.	8E\	in	.	.	.	.	.	.	.	.
=66	=66	=66	=66	=66	=66	=66	=66	=66	=66	=66	=66	=66	=66	=66	=66	=66
8F|>\L	.	.	8f|</L	.	8f|</L	.	8F\L	bra-	2.r	.	2.r	.	2.r	.	2.r	2.r
8E|>\	.	.	8e|</	.	8e|</	.	8E\	.	.	.	.	.	.	.	.	.
8D|>\	.	.	8d|</	.	8d|</	.	8D\	.	.	.	.	.	.	.	.	.
8E|>\	.	.	8e|</	.	8e|</	.	8E\J	.	.	.	.	.	.	.	.	.
8F|>\	.	.	8f|</	.	8f|</	.	8F\	-hi-	.	.	.	.	.	.	.	.
8G|>\J	.	.	8g|</J	.	8g|</J	.	8G\	-o	.	.	.	.	.	.	.	.
=67	=67	=67	=67	=67	=67	=67	=67	=67	=67	=67	=67	=67	=67	=67	=67	=67
!	!	!	!	!	!	!	!LO:LB:g=original	!	!	!	!	!	!	!	!	!
8E|>\L	.	.	(8e/L	.	(8e/L	.	8E\L	su-	2.r	.	2.r	.	2.r	.	2.r	2.r
8D|>\J	.	.	8d/J)	.	8d/J)	.	8D\J	.	.	.	.	.	.	.	.	.
!LO:LB:g=original	!	!	!	!	!	!	!	!	!	!	!	!	!	!	!	!
8C|>\L	.	.	4c/	.	4c/	.	4C/	-o	.	.	.	.	.	.	.	.
8C|>\	.	.	.	.	.	.	.	.	.	.	.	.	.	.	.	.
8E\	6	.	8g/L	.	4cc\	.	4c\	dis-	.	.	.	.	.	.	.	.
8F\J	.	.	8a/J	.	.	.	.	.	.	.	.	.	.	.	.	.
=68	=68	=68	=68	=68	=68	=68	=68	=68	=68	=68	=68	=68	=68	=68	=68	=68
!	!	!	!LO:LB:g=original	!	!	!	!	!	!	!	!	!	!	!	!	!
4G\	.	.	4.b/	.	4.dd\	.	8.B\L	-per-	2.r	.	2.r	.	2.r	.	2.r	2.r
.	.	.	.	.	.	.	32d\LL	.	.	.	.	.	.	.	.	.
.	.	.	.	.	.	.	32c\JJJ	.	.	.	.	.	.	.	.	.
!LO:TX:t=P:problem=mixed beam	!	!	!	!	!	!	!	!	!	!	!	!	!	!	!	!
8GG/L	.	.	.	.	.	.	8B\	-sit	.	.	.	.	.	.	.	.
8G|>\	.	.	8g|</L	.	8g|</L	.	8G\	su-	.	.	.	.	.	.	.	.
8A|>\	.	.	8a|</	.	8a|</	.	8A\	-per-	.	.	.	.	.	.	.	.
8B|>\J	.	.	8b|</J	.	8b|</J	.	8B\	-bos	.	.	.	.	.	.	.	.
=69	=69	=69	=69	=69	=69	=69	=69	=69	=69	=69	=69	=69	=69	=69	=69	=69
8c|>\L	.	.	8cc|</L	.	8cc|</L	.	8c\	men-	2.r	.	2.r	.	2.r	.	2.r	2.r
8B|>\	.	.	8b|</	.	8b|</	.	8B\	-te	.	.	.	.	.	.	.	.
8A|>\	.	.	8a|</	.	8a|</	.	8A\L	Cor-	.	.	.	.	.	.	.	.
8G|>\	.	.	8g|</	.	8g|</	.	8G\	.	.	.	.	.	.	.	.	.
8F|>\	.	.	8f|</	.	8f|</	.	8F\	.	.	.	.	.	.	.	.	.
8E|>\J	.	.	8e|</J	.	8e|</J	.	8E\J	.	.	.	.	.	.	.	.	.
=70	=70	=70	=70	=70	=70	=70	=70	=70	=70	=70	=70	=70	=70	=70	=70	=70
!	!	!	!	!	!LO:TX:t=P:problem=mixed beam	!	!	!	!	!	!	!	!	!	!	!
!	!	!	!	!	!	!	!LO:LB:g=original	!	!	!	!	!	!	!	!	!
4F\	.	.	8d|</L	.	8f/L	.	8F\	.	2.r	.	2.r	.	2.r	.	2.r	2.r
.	.	.	8f|</	.	8dd\J	.	16E\LL	-dis	.	.	.	.	.	.	.	.
.	.	.	.	.	.	.	16F\JJ	.	.	.	.	.	.	.	.	.
4G\	4	.	8e|</	.	8cc\L	.	4G\	su-	.	.	.	.	.	.	.	.
.	.	.	8g|</	.	8ee\	.	.	.	.	.	.	.	.	.	.	.
4GG/	3	.	8f|</	.	8dd\	.	4GG/	.	.	.	.	.	.	.	.	.
.	.	.	8d|</J	.	8b\J	.	.	.	.	.	.	.	.	.	.	.
=71	=71	=71	=71	=71	=71	=71	=71	=71	=71	=71	=71	=71	=71	=71	=71	=71
!LO:TX:a:i:t=Tutti	!	!	!	!	!	!LO:DY:a:t=f.	!	!	!	!	!	!	!	!	!	!
8C\L	.	.	16e/LL	.	16cc\LL	f	8C/	-is	8r	.	8r	.	8r	.	2cc\	2ee\
.	.	.	16g/	.	16dd\	.	.	.	.	.	.	.	.	.	.	.
8C\	.	.	16e/	.	16cc\	.	8C/	De-	8c\	De-	8g\	De-	8ee\	De-	.	.
.	.	.	16g/JJ	.	16b\JJ	.	.	.	.	.	.	.	.	.	.	.
8E\	6	.	16e/LL	.	8cc\L	.	8E\	-po-	8c\	-po-	8g\	-po-	8ee\	-po-	.	.
.	.	.	16g/	.	.	.	.	.	.	.	.	.	.	.	.	.
8E\	.	.	16e/	.	8cc\J	.	8E\	-su-	8c\	-su-	8g\	-su-	8ee\	-su-	.	.
.	.	.	16g/JJ	.	.	.	.	.	.	.	.	.	.	.	.	.
8G\	.	.	16d/LL	.	8.dd\L	.	8G\	-it	8B\	-it	8g\	-it	8dd\	-it	4g/	4dd\
.	.	.	16f/	.	.	.	.	.	.	.	.	.	.	.	.	.
8G\J	.	.	16d/	.	.	.	8G\	po-	8B\	po-	8g\	po-	8dd\	po-	.	.
.	.	.	16f/JJ	.	(32cc\LL	.	.	.	.	.	.	.	.	.	.	.
.	.	.	.	.	32dd\JJJ)	.	.	.	.	.	.	.	.	.	.	.
=72	=72	=72	=72	=72	=72	=72	=72	=72	=72	=72	=72	=72	=72	=72	=72	=72
!	!	!	!	!	!	!	!	!	!	!	!	!	!	!	!LO:LB:g=original	!
8C\L	.	.	16e/LL	.	16ee\LL	.	4C/	-ten-	4c\	-ten-	4g\	-ten-	4ee\	-ten-	4e/	4cc\
.	.	.	16g/	.	16ff\	.	.	.	.	.	.	.	.	.	.	.
8C\	.	.	16e/	.	16ee\	.	.	.	.	.	.	.	.	.	.	.
.	.	.	16g/JJ	.	16dd\JJ	.	.	.	.	.	.	.	.	.	.	.
8E\	6	.	16e/LL	.	8cc\L	.	4E\	-tes	4c\	-tes	4g\	-tes	4ee\	-tes	4cc\	4ee\
.	.	.	16g/	.	.	.	.	.	.	.	.	.	.	.	.	.
8E\	.	.	16e/	.	8cc\J	.	.	.	.	.	.	.	.	.	.	.
.	.	.	16g/JJ	.	.	.	.	.	.	.	.	.	.	.	.	.
8G\	.	.	16d/LL	.	8.dd\L	.	4G\	de	4B\	de	4g\	de	4dd\	de	4g/	4cc\
.	.	.	16f/	.	.	.	.	.	.	.	.	.	.	.	.	.
8G\J	.	.	16d/	.	.	.	.	.	.	.	.	.	.	.	.	.
.	.	.	16f/JJ	.	(32cc\LL	.	.	.	.	.	.	.	.	.	.	.
.	.	.	.	.	32dd\JJJ)	.	.	.	.	.	.	.	.	.	.	.
=73	=73	=73	=73	=73	=73	=73	=73	=73	=73	=73	=73	=73	=73	=73	=73	=73
*	*	*	*tremolo	*	*	*	*	*	*	*	*	*	*	*	*	*
8c\L	.	.	16e/LL	.	16ee\LL	.	4c\	Se-	4c\	Sed	4g\	Se-	4ee\	Se-	4e/	4cc\
.	.	.	16g/	.	16ff\	.	.	.	.	.	.	.	.	.	.	.
8c\J	.	.	16e/	.	16ee\	.	.	.	.	.	.	.	.	.	.	.
.	.	.	16g/	.	16dd\JJ	.	.	.	.	.	.	.	.	.	.	.
!LO:LB:g=original	!	!	!	!	!	!	!	!	!	!	!	!	!	!	!	!
8C/L	.	.	16e/	.	8cc\L	.	8C/	-de	8c\	.	8g\	-des	8ee\	-de	4cc\	4ee\
.	.	.	16g/	.	.	.	.	.	.	.	.	.	.	.	.	.
!	!	!	!	!	!	!	!LO:TX:b:i:t=Verte	!	!	!	!	!	!	!	!	!
8C/	.	.	16e/	.	8cc\J	.	8C/	et	8c\	et	8g\	et	8ee\	et	.	.
.	.	.	16g/	.	.	.	.	.	.	.	.	.	.	.	.	.
!	!	!	!	!	!	!	!	!	!LO:LB:g=original	!	!	!	!	!	!	!
!	!	!	!	!	!	!	!LO:PB:g=original	!	!	!	!	!	!	!	!	!
8E/	6	.	16e/	.	8cc\L	.	8E\	Ex-	8c\	ex-	8g\	ex-	8ee\	e-	4cc\	4ee\
.	.	.	16g/	.	.	.	.	.	.	.	.	.	.	.	.	.
8E/J	.	.	16e/	.	16b\L	.	8E\	-al-	8c\	-al-	8g\	-al-	8ee\	-xal-	.	.
.	.	.	16g/JJ	.	16cc\JJ	.	.	.	.	.	.	.	.	.	.	.
*	*	*	*Xtremolo	*	*	*	*	*	*	*	*	*	*	*	*	*
=74	=74	=74	=74	=74	=74	=74	=74	=74	=74	=74	=74	=74	=74	=74	=74	=74
!LO:TX:t=P:problem=mixed beam	!	!	!	!	!	!	!	!	!	!	!	!	!	!	!	!
!	!	!	!LO:LB:g=original	!	!	!	!	!	!	!	!LO:PB:g=original	!	!	!	!	!
8F\L	6	.	16f/LL	.	16dd\LL	.	8F\	-ta-	8A\	-ta-	8f\	-ta-	8dd\	-ta-	4dd\	4ff\
.	.	.	16g/	.	16ee\	.	.	.	.	.	.	.	.	.	.	.
8F\	.	.	16a/	.	16ff\	.	8F\	-vit	8A\	-vit	8f\	-vit	8dd\	-vit	.	.
.	.	.	16f/JJ	.	16dd\JJ	.	.	.	.	.	.	.	.	.	.	.
!	!	!	!	!	!	!	!	!	!	!	!	!	!LO:LB:g=original	!	!	!
8G\	4	.	4e/	.	4cc\	.	4G\	hu-	4G/	hu-	4e\	hu-	4cc\	hu-	4cc\	4ee\
8G\	.	.	.	.	.	.	.	.	.	.	.	.	.	.	.	.
8GG/	3	.	4d/	.	4b\	.	4G\	-mi-	4G/	-mi-	4d\	-mi-	4b\	-mi-	4g/	4dd\
8GG/J	.	.	.	.	.	.	.	.	.	.	.	.	.	.	.	.
=75	=75	=75	=75	=75	=75	=75	=75	=75	=75	=75	=75	=75	=75	=75	=75	=75
*	*	*	*tremolo	*	*	*	*	*	*	*	*	*	*	*	*	*
8C/L	6 4	.	16e/LL	.	(8.cc\L	.	8c\	-les	8G/	-les	8e\	-les	8cc\	-li-	4e/	2.cc\
.	.	.	16g/	.	.	.	.	.	.	.	.	.	.	.	.	.
8C/	.	.	16e/	.	.	.	8c\	E-	8c\	E-	8g\	E-	8ee\	-es	.	.
.	.	.	16g/	.	16dd\Jk)	.	.	.	.	.	.	.	.	.	.	.
8C/	.	.	16e/	.	8ee|>\L	.	4c\	-su-	4c\	-su-	4g\	-su-	4ee\	E-	4c/	.
.	.	.	16g/	.	.	.	.	.	.	.	.	.	.	.	.	.
8C/	.	.	16e/	.	8ee|>\J	.	.	.	.	.	.	.	.	.	.	.
.	.	.	16g/	.	.	.	.	.	.	.	.	.	.	.	.	.
!	!	!	!	!	!LO:LB:g=original	!	!	!	!	!	!	!	!	!	!	!
8C/	.	.	16e/	.	16ff\LL	.	4c\	-ri-	4c\	-ri-	4g\	-ri-	4ee\	-suri-	4c/	.
.	.	.	16g/	.	16ee\	.	.	.	.	.	.	.	.	.	.	.
8C/J	.	.	16e/	.	16dd\	.	.	.	.	.	.	.	.	.	.	.
.	.	.	16g/JJ	.	16ee\JJ	.	.	.	.	.	.	.	.	.	.	.
=76	=76	=76	=76	=76	=76	=76	=76	=76	=76	=76	=76	=76	=76	=76	=76	=76
8C/L	.	.	16f/LL	.	8ff\L	.	4c\	-en-	4c\	-en-	4a\	-en-	4ff\	-en-	2.c/	2.cc\
.	.	.	16a/	.	.	.	.	.	.	.	.	.	.	.	.	.
8C/	.	.	16f/	.	8cc\	.	.	.	.	.	.	.	.	.	.	.
.	.	.	16a/	.	.	.	.	.	.	.	.	.	.	.	.	.
8C/	.	.	16f/	.	8ff\	.	4c\	-tes	4c\	-tes	4a\	-tes	4ff\	-tes	.	.
.	.	.	16a/	.	.	.	.	.	.	.	.	.	.	.	.	.
8C/	.	.	16f/	.	8cc\J	.	.	.	.	.	.	.	.	.	.	.
.	.	.	16a/	.	.	.	.	.	.	.	.	.	.	.	.	.
8C/	.	.	16f/	.	8aa\L	.	4c\	im-	4c\	im-	4a\	im-	4ff\	im-	.	.
.	.	.	16a/	.	.	.	.	.	.	.	.	.	.	.	.	.
8C/J	.	.	16f/	.	16gg\L	.	.	.	.	.	.	.	.	.	.	.
.	.	.	16a/JJ	.	16ff\JJ	.	.	.	.	.	.	.	.	.	.	.
=77	=77	=77	=77	=77	=77	=77	=77	=77	=77	=77	=77	=77	=77	=77	=77	=77
8C/L	3	.	16e/LL	.	8.ee\L	.	2c\	-ple-	2c\	-ple-	2g\	-ple-	2ee\	-ple-	2.c/	2.cc\
.	.	.	16g/	.	.	.	.	.	.	.	.	.	.	.	.	.
8C/	.	.	16e/	.	.	.	.	.	.	.	.	.	.	.	.	.
.	.	.	16g/	.	32cc\LL	.	.	.	.	.	.	.	.	.	.	.
.	.	.	.	.	32dd\JJJ	.	.	.	.	.	.	.	.	.	.	.
8C/	.	.	16e/	.	8ee\L	.	.	.	.	.	.	.	.	.	.	.
.	.	.	16g/	.	.	.	.	.	.	.	.	.	.	.	.	.
8C/	.	.	16e/	.	8ee\J	.	.	.	.	.	.	.	.	.	.	.
.	.	.	16g/	.	.	.	.	.	.	.	.	.	.	.	.	.
8C/	.	.	16e/	.	16ff\LL	.	4c\	-vit	4c\	-vit	4g\	-vit	4ee\	-vit	.	.
.	.	.	16g/	.	16ee\	.	.	.	.	.	.	.	.	.	.	.
8C/J	.	.	16e/	.	16dd\	.	.	.	.	.	.	.	.	.	.	.
.	.	.	16g/JJ	.	16ee\JJ	.	.	.	.	.	.	.	.	.	.	.
*	*	*	*Xtremolo	*	*	*	*	*	*	*	*	*	*	*	*	*
=78	=78	=78	=78	=78	=78	=78	=78	=78	=78	=78	=78	=78	=78	=78	=78	=78
!	!	!	!	!	!	!	!	!	!LO:LB:g=original	!	!	!	!	!	!	!
!	!	!	!	!	!	!	!LO:LB:g=original	!	!	!	!	!	!	!	!	!
8C/L	6 4	.	16f/LL	.	8ff\L	.	4c\	bo-	4c\	bo-	4a\	bo-	4ff\	bo-	2.c/	2.cc\
.	.	.	16a/	.	.	.	.	.	.	.	.	.	.	.	.	.
8C/	.	.	16f/	.	8cc\	.	.	.	.	.	.	.	.	.	.	.
.	.	.	16a/JJ	.	.	.	.	.	.	.	.	.	.	.	.	.
8C/	.	.	16f/LL	.	8ff\	.	4c\	-nis	4c\	-nis	4a\	-nis	4ff\	-nis	.	.
.	.	.	16a/	.	.	.	.	.	.	.	.	.	.	.	.	.
8C/	.	.	16f/	.	8cc\J	.	.	.	.	.	.	.	.	.	.	.
.	.	.	16a/JJ	.	.	.	.	.	.	.	.	.	.	.	.	.
8C/	.	.	16f/LL	.	8aa\L	.	4c\	et	4c\	et	4a\	et	4ff\	et	.	.
.	.	.	16a/	.	.	.	.	.	.	.	.	.	.	.	.	.
8C/J	.	.	16f/	.	16gg\L	.	.	.	.	.	.	.	.	.	.	.
.	.	.	16a/JJ	.	16ff\JJ	.	.	.	.	.	.	.	.	.	.	.
=79	=79	=79	=79	=79	=79	=79	=79	=79	=79	=79	=79	=79	=79	=79	=79	=79
!	!	!	!	!	!	!	!	!	!	!	!	!	!	!	!	!LO:LB:g=original
!	!	!	!	!	!	!	!	!	!	!	!LO:LB:g=original	!	!	!	!	!
8C\L	3	.	16e/LL	.	16ee\LL	.	8C/	Di-	8c\	di-	8g\	Di-	8ee\	Di-	4c/	4cc\
.	.	.	16g/	.	16ff\	.	.	.	.	.	.	.	.	.	.	.
8C\	.	.	16e/	.	16ee\	.	8C/	-vi-	8c\	-vi-	8g\	-vi-	8ee\	-vi-	.	.
.	.	.	16g/JJ	.	16dd\JJ	.	.	.	.	.	.	.	.	.	.	.
!	!	!	!	!	!	!	!	!	!	!	!	!	!LO:LB:g=original	!	!	!
8E\	6	.	16e/LL	.	8cc\L	.	4E\	-tes	4c\	-tes	4g\	-tes	4ee\	-tes	4cc\	4ee\
.	.	.	16g/	.	.	.	.	.	.	.	.	.	.	.	.	.
8E\	.	.	16e/	.	8cc\J	.	.	.	.	.	.	.	.	.	.	.
.	.	.	16g/JJ	.	.	.	.	.	.	.	.	.	.	.	.	.
8G\	.	.	16d/LL	.	8.dd\L	.	4G\	di-	4B\	di-	4g\	di-	4dd\	di-	4g/	4dd\
.	.	.	16f/	.	.	.	.	.	.	.	.	.	.	.	.	.
8G\J	.	.	16d/	.	.	.	.	.	.	.	.	.	.	.	.	.
.	.	.	16f/JJ	.	(32cc\LL	.	.	.	.	.	.	.	.	.	.	.
.	.	.	.	.	32dd\JJJ)	.	.	.	.	.	.	.	.	.	.	.
=80	=80	=80	=80	=80	=80	=80	=80	=80	=80	=80	=80	=80	=80	=80	=80	=80
*	*	*	*tremolo	*	*	*	*	*	*	*	*	*	*	*	*	*
!LO:LB:g=original	!	!	!	!	!	!	!	!	!	!	!	!	!	!	!	!
8c\L	.	.	16e/LL	.	(8.ee\L	.	4c\	-miſ-	4c\	-miſ-	4g\	-mi-	4ee\	-mi-	4e/	4cc\
.	.	.	16g/	.	.	.	.	.	.	.	.	.	.	.	.	.
8c\J	.	.	16e/	.	.	.	.	.	.	.	.	.	.	.	.	.
.	.	.	16g/	.	16dd\Jk)	.	.	.	.	.	.	.	.	.	.	.
!	!	!	!	!	!LO:LB:g=original	!	!	!	!	!	!	!	!	!	!	!
8C/L	.	.	16e/	.	8cc\L	.	4C/	-sit	4c\	-sit	4g\	-sit	4ee\	-sit	4cc\	4ee\
.	.	.	16g/	.	.	.	.	.	.	.	.	.	.	.	.	.
8C/	.	.	16e/	.	16dd\L	.	.	.	.	.	.	.	.	.	.	.
.	.	.	16g/	.	16ee\JJ	.	.	.	.	.	.	.	.	.	.	.
8E/	6	.	16e/	.	16dd\LL	.	4E\	i-	4c\	i-	4g\	in	4ee\	in-	4cc\	4ee\
.	.	.	16g/	.	16cc\	.	.	.	.	.	.	.	.	.	.	.
8E/J	.	.	16e/	.	16b\	.	.	.	.	.	.	.	.	.	.	.
.	.	.	16g/JJ	.	16cc\JJ	.	.	.	.	.	.	.	.	.	.	.
*	*	*	*Xtremolo	*	*	*	*	*	*	*	*	*	*	*	*	*
=81	=81	=81	=81	=81	=81	=81	=81	=81	=81	=81	=81	=81	=81	=81	=81	=81
!	!	!	!LO:LB:g=original	!	!	!	!	!	!	!	!	!	!	!	!	!
8F\L	.	.	8a/L	.	16dd\LL	.	4F\	-na-	4A\	-na-	4f\	na-	4dd\	-na-	4dd\	4ff\
.	.	.	.	.	16ee\	.	.	.	.	.	.	.	.	.	.	.
8F\	.	.	8f/J	.	16ff\	.	.	.	.	.	.	.	.	.	.	.
.	.	.	.	.	16dd\JJ	.	.	.	.	.	.	.	.	.	.	.
8G\	.	.	4e/	.	4cc\	.	4G\	.	2G/	.	4e\	.	4cc\	.	4cc\	4ee\
8G\J	4	.	.	.	.	.	.	.	.	.	.	.	.	.	.	.
8GG/L	3	.	4d/	.	4b\	.	4GG/	.	.	.	4d\	.	4b\	.	4g/	4dd\
8GG/J	.	.	.	.	.	.	.	.	.	.	.	.	.	.	.	.
=82	=82	=82	=82	=82	=82	=82	=82	=82	=82	=82	=82	=82	=82	=82	=82	=82
!	!	!	!LO:TX:t=P:problem=mixed beam	!	!	!	!	!	!	!	!	!	!	!	!	!
!	!	!	!	!	!	!	!	!	!	!	!	!	!	!	!LO:LB:g=original	!
4C/	.	.	8e/L	.	8cc\L	.	4C/	-nes	4G/	-nes	4e\	-nes	4cc\	-nes	4e/	4cc\
.	.	.	16ee\L	.	16ee\L	.	.	.	.	.	.	.	.	.	.	.
.	.	.	16dd\JJ	.	16dd\JJ	.	.	.	.	.	.	.	.	.	.	.
4r	.	.	8cc/L	.	8cc/L	.	4r	.	4r	.	4r	.	4r	.	4r	4r
.	.	.	8g/J	.	8g/	.	.	.	.	.	.	.	.	.	.	.
4r	.	.	8.e/L	.	8e/	.	4r	.	4r	.	4r	.	4r	.	4r	4r
.	.	.	.	.	8g/J	.	.	.	.	.	.	.	.	.	.	.
.	.	.	16g/Jk	.	.	.	.	.	.	.	.	.	.	.	.	.
=83	=83	=83	=83	=83	=83	=83	=83	=83	=83	=83	=83	=83	=83	=83	=83	=83
!LO:TX:a:i:t=Solo	!	!	!	!LO:DY:a:t=p.	!	!	!	!	!	!	!LO:TX:a:i:t=Solo	!	!	!	!	!
!	!	!	!	!	!	!	!	!	!LO:LB:g=original	!	!	!	!	!	!	!
!	!	!	!	!	!	!	!LO:LB:g=original	!	!	!	!	!	!	!	!	!
4C/	.	.	4e/	p	4e/	.	2.r	.	4c\	Sus-	4e\	Su-	2.r	.	2.r	2.r
4C/	.	.	4e/	.	4e/	.	.	.	8c\L	-ce-	8e\L	-sce-	.	.	.	.
.	.	.	.	.	.	.	.	.	8B\J	.	8d\J	.	.	.	.	.
4r	.	.	4r	.	4r	.	.	.	8c\L	-pit	8e\L	-pit	.	.	.	.
.	.	.	.	.	.	.	.	.	8d\J	.	8f\J	.	.	.	.	.
=84	=84	=84	=84	=84	=84	=84	=84	=84	=84	=84	=84	=84	=84	=84	=84	=84
!	!	!	!	!	!	!LO:DY:a:t=p.	!	!	!	!	!	!	!	!	!	!
!	!	!	!	!	!	!	!	!	!	!	!LO:LB:g=original	!	!	!	!	!
8r	.	.	8r	.	8r	p	2.r	.	2e\	Is-	2g\	I-	2.r	.	2.r	2.r
16C/LL	.	.	16e/LL	.	16e/LL	.	.	.	.	.	.	.	.	.	.	.
16BB/JJ	.	.	16d/JJ	.	16d/JJ	.	.	.	.	.	.	.	.	.	.	.
8C\L	.	.	8e/L	.	8e/L	.	.	.	.	.	.	.	.	.	.	.
8E\	.	.	8g/	.	8g/	.	.	.	.	.	.	.	.	.	.	.
8C\	.	.	8e/	.	8e/	.	.	.	16f\LL	.	16a\LL	.	.	.	.	.
.	.	.	.	.	.	.	.	.	16e\JJ	.	16g\JJ	.	.	.	.	.
8E\J	.	.	8g/J	.	8g/J	.	.	.	16d\LL	-ra-	16f\LL	-sra-	.	.	.	.
.	.	.	.	.	.	.	.	.	16c\JJ	.	16e\JJ	.	.	.	.	.
=85	=85	=85	=85	=85	=85	=85	=85	=85	=85	=85	=85	=85	=85	=85	=85	=85
4G\	.	.	8f/L	.	8f/L	.	2.r	.	4B\	-el	4d\	-el	2.r	.	2.r	2.r
.	.	.	8d/J	.	8d/J	.	.	.	.	.	.	.	.	.	.	.
4GG/	.	.	4d/	.	4d/	.	.	.	8B\L	pu-	8d\L	pu-	.	.	.	.
.	.	.	.	.	.	.	.	.	8A\J	.	8c\J	.	.	.	.	.
4r	.	.	4r	.	4r	.	.	.	8B\	-e-	8d\	-e-	.	.	.	.
.	.	.	.	.	.	.	.	.	8c\	-rum	8e\	-rum	.	.	.	.
=86	=86	=86	=86	=86	=86	=86	=86	=86	=86	=86	=86	=86	=86	=86	=86	=86
8r	.	.	8r	.	8r	.	2.r	.	4.d\	Su-	4.f\	Su-	2.r	.	2.r	2.r
16G\LL	3	.	16B/LL	.	16B/LL	.	.	.	.	.	.	.	.	.	.	.
16F\JJ	.	.	16A/JJ	.	16A/JJ	.	.	.	.	.	.	.	.	.	.	.
!	!	!	!	!	!LO:LB:g=original	!	!	!	!	!	!	!	!	!	!	!
8G\L	.	.	8B/L	.	8B/L	.	.	.	.	.	.	.	.	.	.	.
8B\	.	.	8d/	.	8d/	.	.	.	16c\LL	.	16e\LL	.	.	.	.	.
.	.	.	.	.	.	.	.	.	16d\JJ	.	16f\JJ	.	.	.	.	.
8G\	.	.	8B/	.	8B/	.	.	.	8e\L	.	8g\L	.	.	.	.	.
8B\J	.	.	8d/J	.	8d/J	.	.	.	8d\J	.	8f\J	.	.	.	.	.
=87	=87	=87	=87	=87	=87	=87	=87	=87	=87	=87	=87	=87	=87	=87	=87	=87
!LO:LB:g=original	!	!	!	!	!	!	!	!	!LO:PB:g=original	!	!	!	!	!	!	!
4c\	.	.	4c/	.	4e/	.	2.r	.	4c\	-um	4e\	-um	2.r	.	2.r	2.r
4C/	.	.	4c/	.	4e/	.	.	.	8c\L	re-	8e|>\L	re-	.	.	.	.
.	.	.	.	.	.	.	.	.	8B\J	.	8d|>\J	.	.	.	.	.
4r	.	.	4r	.	4r	.	.	.	8c\L	-cor-	8e|>\L	-cor-	.	.	.	.
.	.	.	.	.	.	.	.	.	8d\J	.	8f|>\J	.	.	.	.	.
=88	=88	=88	=88	=88	=88	=88	=88	=88	=88	=88	=88	=88	=88	=88	=88	=88
!	!	!	!LO:PB:g=original	!	!	!	!	!	!	!	!LO:LB:g=original	!	!	!	!	!
4G\	4	.	(8.e/L	.	(8.g/L	.	2.r	.	8.e\L	-da-	8.g\L	-da-	2.r	.	2.r	2.r
.	.	.	16d/Jk)	.	16f/Jk)	.	.	.	16d\Jk	.	16f\Jk	.	.	.	.	.
4C/	3	.	4c/	.	4e/	.	.	.	8c\	-tus	8e\	-tus	.	.	.	.
.	.	.	.	.	.	.	.	.	8c\	mi-	8e\	mi-	.	.	.	.
4r	.	.	4r	.	4r	.	.	.	16c\LL	-Se-	16e\LL	-se-	.	.	.	.
.	.	.	.	.	.	.	.	.	16B\JJ	.	16d\JJ	.	.	.	.	.
.	.	.	.	.	.	.	.	.	16c\LL	-ri-	16e\LL	-ri-	.	.	.	.
.	.	.	.	.	.	.	.	.	16d\JJ	.	16f\JJ	.	.	.	.	.
=89	=89	=89	=89	=89	=89	=89	=89	=89	=89	=89	=89	=89	=89	=89	=89	=89
4G\	4	.	(8.e/L	.	8.g/L	.	2.r	.	8.e\	-Cor-	8.g\	-cor-	2.r	.	2.r	2.r
.	3	.	16d/Jk)	.	16f/Jk	.	.	.	16d\	-di-	16f\	-di-	.	.	.	.
4C/	.	.	4c|</	.	4e/	.	.	.	8c\	-e	8e\	-ae	.	.	.	.
.	.	.	.	.	.	.	.	.	8c\	mi-	8e\	mi-	.	.	.	.
4r	.	.	4r	.	4r	.	.	.	16c\LL	-Se-	16e\LL	-se-	.	.	.	.
.	.	.	.	.	.	.	.	.	16B\JJ	.	16d\JJ	.	.	.	.	.
.	.	.	.	.	.	.	.	.	16c\LL	-ri-	16e\LL	-ri-	.	.	.	.
.	.	.	.	.	.	.	.	.	16d\JJ	.	16f\JJ	.	.	.	.	.
=90	=90	=90	=90	=90	=90	=90	=90	=90	=90	=90	=90	=90	=90	=90	=90	=90
!	!	!	!	!	!	!	!	!	!LO:LB:g=original	!	!	!	!	!	!	!
4c\	.	.	8e/L	.	8g/L	.	2.r	.	8e\L	-Cor-	8g\L	-cor-	2.r	.	2.r	2.r
.	.	.	16d/L	.	16f/L	.	.	.	16d\L	.	16f\L	.	.	.	.	.
.	.	.	16e/JJ	.	16g/JJ	.	.	.	16e\JJ	.	16g\JJ	.	.	.	.	.
4F\	6	.	8f/L	.	8a/L	.	.	.	8f\	-di-	8a\	-di-	.	.	.	.
.	.	.	8d/	.	8f/	.	.	.	8d\	-ae	8f\	-ae	.	.	.	.
!	!	!	!	!	!	!	!	!	!	!	!LO:LB:g=original	!	!	!	!	!
4G\	.	.	8c/	.	8e/	.	.	.	8c\L	Su-	8e\L	su-	.	.	.	.
.	.	.	8B/J	.	8d/J	.	.	.	8B\J	.	8d\J	.	.	.	.	.
=91	=91	=91	=91	=91	=91	=91	=91	=91	=91	=91	=91	=91	=91	=91	=91	=91
4C/	.	.	8c/L	.	8e|</L	.	2.r	.	4c\	-e	4e\	-e	2.r	.	2.r	2.r
!	!	!	!	!LO:HP:t=cres	!	!	!	!	!	!	!	!	!	!	!	!
.	.	.	8c/	<	8e|</	.	.	.	.	.	.	.	.	.	.	.
4r	.	.	8d/	.	8f|</	.	.	.	4r	.	4r	.	.	.	.	.
.	.	.	8e/	.	8g|</	.	.	.	.	.	.	.	.	.	.	.
4r	.	.	8f/	.	8a|</	.	.	.	4r	.	4r	.	.	.	.	.
.	.	.	8d/J	.	8b|</J	.	.	.	.	.	.	.	.	.	.	.
=92	=92	=92	=92	=92	=92	=92	=92	=92	=92	=92	=92	=92	=92	=92	=92	=92
!	!	!	!	!LO:DY:a:t=f.	!	!LO:DY:a:t=for	!	!	!	!	!	!	!	!	!	!
4c|>\	.	.	4cc 4e/	f	16cc\LL	f	4c\	Si-	4c\	Si-	4cc\	Si-	4cc\	Si-	4c/	4cc\
.	.	.	.	.	16b\	.	.	.	.	.	.	.	.	.	.	.
.	.	.	.	.	16cc\	.	.	.	.	.	.	.	.	.	.	.
.	.	.	.	.	16dd\JJ	.	.	.	.	.	.	.	.	.	.	.
!	!	!	!	!	!LO:TX:t=P:problem=mixed beam	!	!	!	!	!	!	!	!	!	!	!
4e|>\	.	.	8ee\L	.	8ee\L	.	4e\	-cut	4e\	-cut	4ee\	-cut	4ee\	-cut	4e/	4ee\
.	.	.	8ee\	.	8ee\	.	.	.	.	.	.	.	.	.	.	.
4G|>\	.	.	8g\	.	8g/	.	4G\	lo-	4G/	lo-	4g\	lo-	4g\	lo-	4r	4r
.	.	.	8g\J	.	8g/J	.	.	.	.	.	.	.	.	.	.	.
=93	=93	=93	=93	=93	=93	=93	=93	=93	=93	=93	=93	=93	=93	=93	=93	=93
!	!	!	!	!	!LO:LB:g=original	!	!	!	!	!	!	!	!	!	!	!
!	!	!	!	!	!	!	!	!	!	!	!	!	!LO:LB:g=original	!	!	!
4A|>\	.	.	16a/LL	.	16a/LL	.	8A\	-cu-	8A\	-cu-	8a\	-cu-	8a\	-cu-	2.r	2.r
.	.	.	16g/	.	16g/	.	.	.	.	.	.	.	.	.	.	.
.	.	.	16a/	.	16a/	.	8A\	-tus	8A\	-tus	8a\	-tus	8a\	-tus	.	.
.	.	.	16b/JJ	.	16b/JJ	.	.	.	.	.	.	.	.	.	.	.
!	!	!	!LO:TX:t=P:problem=mixed beam	!	!LO:TX:t=P:problem=mixed beam	!	!	!	!	!	!	!	!	!	!	!
4c|>\	.	.	8cc\L	.	8cc\L	.	4c\	est	4c\	eſt	4cc\	est	4cc\	est	.	.
.	.	.	8cc\	.	8cc\	.	.	.	.	.	.	.	.	.	.	.
4E|>\	.	.	8e/	.	8e/	.	4E\	ad	4E/	ad	4e\	ad	4e/	ad	.	.
.	.	.	8e/J	.	8e/J	.	.	.	.	.	.	.	.	.	.	.
=94	=94	=94	=94	=94	=94	=94	=94	=94	=94	=94	=94	=94	=94	=94	=94	=94
!	!	!	!LO:LB:g=original	!	!	!	!	!	!	!	!	!	!	!	!	!
!	!	!	!	!	!	!	!	!	!LO:LB:g=original	!	!	!	!	!	!	!
4F|>\	.	.	8f/L	.	8f/L	.	8F\	pa-	8F\	pa-	8f\	pa-	8f/	Pa-	4r	4r
.	.	.	8f/	.	8f/	.	8F\	-tres	8F\	-tres	8f\	-tres	8f/	-tres	.	.
4D|>\	.	.	8d/	.	8d/	.	4D\	no-	4D/	no-	4d\	nos-	4d/	no-	4r	4r
.	.	.	8d/	.	8d/	.	.	.	.	.	.	.	.	.	.	.
4G|>\	.	.	8g/	.	8g/	.	4G\	-stras	4G\	-straſ	4g\	-tras	4g/	-stros	4g/	4gg\
.	.	.	8g/J	.	8g/J	.	.	.	.	.	.	.	.	.	.	.
=95	=95	=95	=95	=95	=95	=95	=95	=95	=95	=95	=95	=95	=95	=95	=95	=95
4E|>\	.	.	16e/LL	.	16e/LL	.	8E\	A-	8E/	A-	8e\	a-	8e/	a-	4e/	4ee\
.	.	.	16f/	.	16f/	.	.	.	.	.	.	.	.	.	.	.
.	.	.	16e/	.	16e/	.	8E\	-bra-	8E/	-bra-	8e\	-bra-	8e/	-bra-	.	.
.	.	.	16d/JJ	.	16d/JJ	.	.	.	.	.	.	.	.	.	.	.
!	!	!	!	!	!	!	!	!	!	!	!LO:LB:g=original	!	!	!	!	!
!	!	!	!	!	!	!	!LO:LB:g=original	!	!	!	!	!	!	!	!	!
4C|>/	.	.	8c/L	.	8c/L	.	4C/	-ham	4C/	-ham	4c\	-am	4c/	-cham	4c/	4cc\
.	.	.	8c/	.	8e/	.	.	.	.	.	.	.	.	.	.	.
4r	.	.	8e/	.	8g/	.	4r	.	4r	.	4r	.	4r	.	4r	4r
.	.	.	8g/J	.	8cc/J	.	.	.	.	.	.	.	.	.	.	.
=96	=96	=96	=96	=96	=96	=96	=96	=96	=96	=96	=96	=96	=96	=96	=96	=96
!LO:TX:a:i:t=Tutti	!	!	!	!	!	!	!	!	!	!	!	!	!	!	!	!
!	!	!	!	!	!	!	!	!	!	!	!	!	!	!	!	!LO:LB:g=original
8c\L	.	.	16e/LL	.	8.ee\L	.	4c\	et	4c\	et	4g\	et	4ee\	Et	2e/	2cc\
.	.	.	16g/	.	.	.	.	.	.	.	.	.	.	.	.	.
8c\	.	.	16e/	.	.	.	.	.	.	.	.	.	.	.	.	.
.	.	.	16g/JJ	.	32gg\LL	.	.	.	.	.	.	.	.	.	.	.
.	.	.	.	.	32ff\JJJ	.	.	.	.	.	.	.	.	.	.	.
8c\	.	.	16e/LL	.	8ee\L	.	4c\	se-	4c\	Se-	4g\	se-	4ee\	se-	.	.
.	.	.	16g/	.	.	.	.	.	.	.	.	.	.	.	.	.
8c\	.	.	16e/	.	8gg\	.	.	.	.	.	.	.	.	.	.	.
.	.	.	16g/JJ	.	.	.	.	.	.	.	.	.	.	.	.	.
8B\	6	.	16d/LL	.	8dd\	.	8B\	-mi-	8d\	-mi-	8g\	-mi-	8dd\	-mi-	4g/	4dd\
.	.	.	16g/	.	.	.	.	.	.	.	.	.	.	.	.	.
8B\J	.	.	16d/	.	8gg\J	.	8B\	-ni	8d\	-ni	8g\	-ni	8dd\	-ni	.	.
.	.	.	16g/JJ	.	.	.	.	.	.	.	.	.	.	.	.	.
=97	=97	=97	=97	=97	=97	=97	=97	=97	=97	=97	=97	=97	=97	=97	=97	=97
*	*	*	*tremolo	*	*	*	*	*	*	*	*	*	*	*	*	*
!	!	!	!	!	!	!	!	!	!	!	!	!	!LO:LB:g=original	!	!	!
8A\L	.	.	16c/LL	.	8.cc\L	.	2A\	e-	2c\	e-	2e\	e-	2cc\	e-	2cc\	2ee\
.	.	.	16e/	.	.	.	.	.	.	.	.	.	.	.	.	.
8A\	.	.	16c/	.	.	.	.	.	.	.	.	.	.	.	.	.
.	.	.	16e/	.	32ee\LL	.	.	.	.	.	.	.	.	.	.	.
.	.	.	.	.	32dd\JJJ	.	.	.	.	.	.	.	.	.	.	.
8A\	.	.	16c/	.	8cc\L	.	.	.	.	.	.	.	.	.	.	.
.	.	.	16e/	.	.	.	.	.	.	.	.	.	.	.	.	.
8A\	.	.	16c/	.	8ee\	.	.	.	.	.	.	.	.	.	.	.
.	.	.	16e/	.	.	.	.	.	.	.	.	.	.	.	.	.
8E\	6	.	16c/	.	8gg\	.	4E\	-jus	4c\	-jus	4g\	-jus	4ee\	-jus	4cc\	4ee\
.	.	.	16e/	.	.	.	.	.	.	.	.	.	.	.	.	.
8E\J	.	.	16c/	.	8ccc\J	.	.	.	.	.	.	.	.	.	.	.
.	.	.	16e/JJ	.	.	.	.	.	.	.	.	.	.	.	.	.
*	*	*	*Xtremolo	*	*	*	*	*	*	*	*	*	*	*	*	*
=98	=98	=98	=98	=98	=98	=98	=98	=98	=98	=98	=98	=98	=98	=98	=98	=98
!LO:TX:t=P:problem=mixed beam	!	!	!LO:TX:t=P:problem=mixed beam	!	!	!	!	!	!	!	!	!	!	!	!	!
8F\L	6	.	8d/L	.	8aa\L	.	4F\	in	4A/	in	4f\	in	4dd\	in	4dd\	4ff\
8F\	.	.	8dd\J	.	16gg\L	.	.	.	.	.	.	.	.	.	.	.
.	.	.	.	.	16ff\JJ	.	.	.	.	.	.	.	.	.	.	.
8G\	.	.	4cc\	.	4ee\	.	4G\	Se-	4G/	Se-	4e\	Se-	4cc\	se-	4cc\	4ee\
8G\	4	.	.	.	.	.	.	.	.	.	.	.	.	.	.	.
8GG/	3	.	4b\	.	4dd\	.	4G\	-cu-	4G/	-cu-	4d\	-cu-	4b\	-cu-	4g/	4dd\
8GG/J	.	.	.	.	.	.	.	.	.	.	.	.	.	.	.	.
=99	=99	=99	=99	=99	=99	=99	=99	=99	=99	=99	=99	=99	=99	=99	=99	=99
!LO:TX:a:i:t=Solo	!	!	!	!	!	!	!	!	!	!	!	!	!	!	!	!
!	!	!	!	!	!	!	!	!	!LO:LB:g=original	!	!	!	!	!	!	!
!	!	!	!	!	!LO:LB:g=original	!	!	!	!	!	!	!	!	!	!	!
4C/	.	.	8.cc\L	.	8.ee\L	.	4C/	-lum	4G/	-la	4e\	-la	4cc\	-la	4e/	4cc\
.	.	.	16dd\Jk	.	16ff\Jk	.	.	.	.	.	.	.	.	.	.	.
4C/	.	.	16ff\LL	.	16aa\LL	.	4r	.	4r	.	4r	.	4r	.	4r	4r
.	.	.	16ee\	.	16gg\	.	.	.	.	.	.	.	.	.	.	.
.	.	.	16dd\	.	16ff\	.	.	.	.	.	.	.	.	.	.	.
.	.	.	16ee\JJ	.	16gg\JJ	.	.	.	.	.	.	.	.	.	.	.
8r	.	.	8cc\L	.	16ff\LL	.	4r	.	4r	.	4r	.	4r	.	4r	4r
.	.	.	.	.	16ee\	.	.	.	.	.	.	.	.	.	.	.
8E\	6	.	8g\J	.	16dd\	.	.	.	.	.	.	.	.	.	.	.
.	.	.	.	.	16cc\JJ	.	.	.	.	.	.	.	.	.	.	.
=100	=100	=100	=100	=100	=100	=100	=100	=100	=100	=100	=100	=100	=100	=100	=100	=100
!	!	!	!LO:LB:g=original	!	!	!	!	!	!	!	!	!	!	!	!	!
4F\	6	.	8a/L	.	16dd\LL	.	2.r	.	2.r	.	2.r	.	2.r	.	2.r	2.r
.	.	.	.	.	16ff\	.	.	.	.	.	.	.	.	.	.	.
.	.	.	8f/	.	16ee\	.	.	.	.	.	.	.	.	.	.	.
.	.	.	.	.	16dd\JJ	.	.	.	.	.	.	.	.	.	.	.
!	!	!	!	!	!LO:TX:t=P:problem=mixed beam	!	!	!	!	!	!	!	!	!	!	!
4G\	4	.	8e/	.	8cc\L	.	.	.	.	.	.	.	.	.	.	.
.	.	.	8g/	.	8ee\	.	.	.	.	.	.	.	.	.	.	.
4GG/	3	.	8f/	.	8g/	.	.	.	.	.	.	.	.	.	.	.
.	.	.	8d/J	.	8b/J	.	.	.	.	.	.	.	.	.	.	.
=101	=101	=101	=101	=101	=101	=101	=101	=101	=101	=101	=101	=101	=101	=101	=101	=101
!	!	!	!	!LO:DY:a:t=p.	!	!	!	!	!	!	!LO:TX:a:i:t=Solo	!	!	!	!	!
8C/L	.	.	4e/	p	4cc\	.	2.r	.	4.c\	Glo-	4.e\	Glo-	2.r	.	2.r	2.r
8BB/	.	.	.	.	.	.	.	.	.	.	.	.	.	.	.	.
8C/	.	.	4r	.	4r	.	.	.	.	.	.	.	.	.	.	.
8BB/	.	.	.	.	.	.	.	.	8d\	.	8f\	.	.	.	.	.
!	!	!	!	!	!	!	!	!	!	!	!LO:LB:g=original	!	!	!	!	!
8C/	.	.	4r	.	4r	.	.	.	8e\	-ri-	8g\	-ri-	.	.	.	.
8E/J	.	.	.	.	.	.	.	.	16d\LL	-a	16f\LL	-a	.	.	.	.
.	.	.	.	.	.	.	.	.	16c\JJ	.	16e\JJ	.	.	.	.	.
=102	=102	=102	=102	=102	=102	=102	=102	=102	=102	=102	=102	=102	=102	=102	=102	=102
!	!	!	!	!	!	!LO:DY:a:t=p.	!	!	!	!	!	!	!	!	!	!
4G\	.	.	8r	.	8r	p	2.r	.	8c\L	pa-	8e\L	Pa-	2.r	.	2.r	2.r
.	.	.	16b\LL	.	16dd\LL	.	.	.	8B\J	.	8d\J	.	.	.	.	.
.	.	.	16cc\JJ	.	16ee\JJ	.	.	.	.	.	.	.	.	.	.	.
4GG/	.	.	8dd\L	.	8ff\L	.	.	.	4B\	-tri	4d\	-tri	.	.	.	.
.	.	.	8ee\	.	8gg\	.	.	.	.	.	.	.	.	.	.	.
4r	.	.	8dd\	.	8ff\	.	.	.	4r	.	4r	.	.	.	.	.
.	.	.	8cc\J	.	8ee\J	.	.	.	.	.	.	.	.	.	.	.
=103	=103	=103	=103	=103	=103	=103	=103	=103	=103	=103	=103	=103	=103	=103	=103	=103
!LO:LB:g=original	!	!	!	!	!	!	!	!	!	!	!	!	!	!	!	!
8GG/L	.	.	4b\	.	4dd\	.	2.r	.	4.B\	Glo-	4.d\	Glo-	2.r	.	2.r	2.r
8AA/	.	.	.	.	.	.	.	.	.	.	.	.	.	.	.	.
8BB/	.	.	4r	.	4r	.	.	.	.	.	.	.	.	.	.	.
8GG/	.	.	.	.	.	.	.	.	8c\	.	8e\	.	.	.	.	.
8AA/	.	.	4r	.	4r	.	.	.	16d\LL	-ri-	16f\LL	.	.	.	.	.
.	.	.	.	.	.	.	.	.	16f\JJ	.	16a\JJ	.	.	.	.	.
8BB/J	.	.	.	.	.	.	.	.	16e\LL	-a	16g\LL	-ri-	.	.	.	.
.	.	.	.	.	.	.	.	.	16d\JJ	.	16f\JJ	-a	.	.	.	.
=104	=104	=104	=104	=104	=104	=104	=104	=104	=104	=104	=104	=104	=104	=104	=104	=104
!	!	!	!	!	!	!	!	!	!LO:LB:g=original	!	!	!	!	!	!	!
4C/	.	.	8r	.	8r	.	2.r	.	8d\	fi-	8f\	fi-	2.r	.	2.r	2.r
.	.	.	16cc\LL	.	16ee\LL	.	.	.	8c\	-li-	8e\	-li-	.	.	.	.
.	.	.	16dd\JJ	.	16ff\JJ	.	.	.	.	.	.	.	.	.	.	.
4C/	.	.	8ee\L	.	8gg\L	.	.	.	4c\	-o	4e\	-o	.	.	.	.
.	.	.	8ff\	.	8aa\	.	.	.	.	.	.	.	.	.	.	.
4r	.	.	8ee\	.	8gg\	.	.	.	4r	.	4r	.	.	.	.	.
.	.	.	8dd\J	.	8ff\J	.	.	.	.	.	.	.	.	.	.	.
=105	=105	=105	=105	=105	=105	=105	=105	=105	=105	=105	=105	=105	=105	=105	=105	=105
!	!	!	!	!	!LO:LB:g=original	!	!	!	!	!	!	!	!	!	!	!
8C/L	.	.	4cc\	.	4ee\	.	2.r	.	4.c\	et	4.e\	et	2.r	.	2.r	2.r
8C/	.	.	.	.	.	.	.	.	.	.	.	.	.	.	.	.
8C/	.	.	4cc\	.	4ee\	.	.	.	.	.	.	.	.	.	.	.
8C/	.	.	.	.	.	.	.	.	16d\LL	.	16f\LL	.	.	.	.	.
.	.	.	.	.	.	.	.	.	16e\JJ	.	16g\JJ	.	.	.	.	.
!	!	!	!	!	!	!	!	!	!	!	!LO:LB:g=original	!	!	!	!	!
8C/	6 4	.	4r	.	4r	.	.	.	8f\	.	8a\	.	.	.	.	.
!LO:TX:t=P:problem=jeden skreślony takt	!	!	!	!	!	!	!	!	!	!	!	!	!	!	!	!
8C/J	5 3	.	.	.	.	.	.	.	8e\	Spi-	8g\	Spi-	.	.	.	.
=106	=106	=106	=106	=106	=106	=106	=106	=106	=106	=106	=106	=106	=106	=106	=106	=106
*tremolo	*	*	*	*	*	*	*	*	*	*	*	*	*	*	*	*
8E\L	.	.	(4.ee\	.	4.gg\	.	2.r	.	4.e\	-ri-	4.g\	-ri-	2.r	.	2.r	2.r
8E\	.	.	.	.	.	.	.	.	.	.	.	.	.	.	.	.
8E\	.	.	.	.	.	.	.	.	.	.	.	.	.	.	.	.
8E\	.	.	8dd\)	.	8ff\	.	.	.	8d\	-tu-	8f\	-tu-	.	.	.	.
8E\	.	.	8cc\L	.	8ee\L	.	.	.	4c\	-i	4e\	-i	.	.	.	.
8E\J	.	.	16b\L	.	16dd\L	.	.	.	.	.	.	.	.	.	.	.
.	.	.	16cc\JJ	.	16ee\JJ	.	.	.	.	.	.	.	.	.	.	.
*Xtremolo	*	*	*	*	*	*	*	*	*	*	*	*	*	*	*	*
=107	=107	=107	=107	=107	=107	=107	=107	=107	=107	=107	=107	=107	=107	=107	=107	=107
!LO:TX:t=P:problem=mixed beam	!	!	!	!	!	!	!	!	!	!	!	!	!	!	!	!
!	!	!	!LO:LB:g=original	!	!	!	!	!	!	!	!	!	!	!	!	!
8F\L	6	.	16dd\LL	.	16ff\LL	.	2.r	.	4d\	San-	4f\	San-	2.r	.	2.r	2.r
.	.	.	16ee\	.	16gg\	.	.	.	.	.	.	.	.	.	.	.
8F\	.	.	16ff\	.	16aa\	.	.	.	.	.	.	.	.	.	.	.
.	.	.	16dd\JJ	.	16ff\JJ	.	.	.	.	.	.	.	.	.	.	.
8Gn\	4	.	4cc\	.	4ee\	.	.	.	4c\	.	4e\	.	.	.	.	.
8G\	.	.	.	.	.	.	.	.	.	.	.	.	.	.	.	.
8GG/	3	.	4b\	.	4dd\	.	.	.	4B\	-cto	4d\	.	.	.	.	.
8GG/J	.	.	.	.	.	.	.	.	.	.	.	.	.	.	.	.
=108	=108	=108	=108	=108	=108	=108	=108	=108	=108	=108	=108	=108	=108	=108	=108	=108
*tremolo	*	*	*	*	*	*	*	*	*	*	*	*	*	*	*	*
!LO:TX:a:i:t=Tutti	!	!	!	!LO:DY:a:t=f.	!	!LO:DY:a:t=f.	!	!	!	!	!	!	!	!	!	!
!	!	!	!	!	!	!	!LO:LB:g=original	!	!	!	!	!	!	!	!	!
8C/L	.	.	16e/LL	f	4ee\	f	4r	.	4c\	Si-	4e\	-cto	4r	.	8e/L	8cc\L
.	.	.	16g/	.	.	.	.	.	.	.	.	.	.	.	.	.
8C/	.	.	16e/	.	.	.	.	.	.	.	.	.	.	.	8e/J	8cc\J
.	.	.	16g/JJ	.	.	.	.	.	.	.	.	.	.	.	.	.
8C/	.	.	16e/LL	.	8r	.	4c\	Si-	4c\	.	4g\	Si-	4ee\	Si-	4e/	4cc\
.	.	.	16g/	.	.	.	.	.	.	.	.	.	.	.	.	.
8C/	.	.	16e/	.	8g\L	.	.	.	.	.	.	.	.	.	.	.
.	.	.	16g/JJ	.	.	.	.	.	.	.	.	.	.	.	.	.
8C/	.	.	16e/LL	.	8cc\	.	4c\	-cut	4c\	-cut	4g\	-cut	4ee\	-cut	4r	4r
.	.	.	16g/	.	.	.	.	.	.	.	.	.	.	.	.	.
8C/J	.	.	16e/	.	8ee\J	.	.	.	.	.	.	.	.	.	.	.
.	.	.	16g/JJ	.	.	.	.	.	.	.	.	.	.	.	.	.
=109	=109	=109	=109	=109	=109	=109	=109	=109	=109	=109	=109	=109	=109	=109	=109	=109
!	!	!	!	!	!	!	!	!	!	!	!	!	!	!	!LO:LB:g=original	!
!	!	!	!	!	!	!	!	!	!LO:LB:g=original	!	!	!	!	!	!	!
8C/L	.	.	16e/LL	.	8gg\L	.	2c\	e-	2c\	e-	2g\	e-	2ee\	e-	4e/	4cc\
.	.	.	16g/	.	.	.	.	.	.	.	.	.	.	.	.	.
8C/	.	.	16e/	.	8ee\	.	.	.	.	.	.	.	.	.	.	.
.	.	.	16g/JJ	.	.	.	.	.	.	.	.	.	.	.	.	.
8C/	.	.	16e/LL	.	8ccc\	.	.	.	.	.	.	.	.	.	4e/	4cc\
.	.	.	16g/	.	.	.	.	.	.	.	.	.	.	.	.	.
8C/	.	.	16e/	.	8gg\	.	.	.	.	.	.	.	.	.	.	.
.	.	.	16g/JJ	.	.	.	.	.	.	.	.	.	.	.	.	.
8C/	.	.	16e/LL	.	8ff\	.	4c\	-rat	4c\	-rat	4g\	-rat	4ee\	-rat	4e/	4cc\
.	.	.	16g/	.	.	.	.	.	.	.	.	.	.	.	.	.
8C/J	.	.	16e/	.	8ee\J	.	.	.	.	.	.	.	.	.	.	.
.	.	.	16g/JJ	.	.	.	.	.	.	.	.	.	.	.	.	.
=110	=110	=110	=110	=110	=110	=110	=110	=110	=110	=110	=110	=110	=110	=110	=110	=110
*	*	*	*tremolo	*	*	*	*	*	*	*	*	*	*	*	*	*
8BB/L	6 5	.	16f/LL	.	4dd\	.	2B\	in	2d\	in	2g\	in	2dd\	in	8g/L	8dd\L
.	.	.	16g/	.	.	.	.	.	.	.	.	.	.	.	.	.
8BB/	.	.	16f/	.	.	.	.	.	.	.	.	.	.	.	8g/J	8dd\J
.	.	.	16g/	.	.	.	.	.	.	.	.	.	.	.	.	.
8BB/	.	.	16f/	.	8r	.	.	.	.	.	.	.	.	.	4g/	4dd\
.	.	.	16g/	.	.	.	.	.	.	.	.	.	.	.	.	.
8BB/	.	.	16f/	.	8g\L	.	.	.	.	.	.	.	.	.	.	.
.	.	.	16g/	.	.	.	.	.	.	.	.	.	.	.	.	.
8BB/	.	.	16f/	.	8b\	.	4B\	prin-	4d\	prin-	4g\	prin-	4dd\	prin-	4r	4r
.	.	.	16g/	.	.	.	.	.	.	.	.	.	.	.	.	.
8BB/J	.	.	16f/	.	8dd\J	.	.	.	.	.	.	.	.	.	.	.
.	.	.	16g/JJ	.	.	.	.	.	.	.	.	.	.	.	.	.
=111	=111	=111	=111	=111	=111	=111	=111	=111	=111	=111	=111	=111	=111	=111	=111	=111
!	!	!	!	!	!	!	!	!	!	!	!	!	!LO:LB:g=original	!	!	!
!LO:LB:g=original	!	!	!	!	!	!	!	!	!	!	!LO:LB:g=original	!	!	!	!	!
8BB/L	.	.	16f/LL	.	8gg\L	.	4.B\	-ci-	4.d\	-ci-	4.g\	-ci-	4.dd\	-ci-	4g/	4dd\
.	.	.	16g/	.	.	.	.	.	.	.	.	.	.	.	.	.
8BB/	.	.	16f/	.	8dd\	.	.	.	.	.	.	.	.	.	.	.
.	.	.	16g/	.	.	.	.	.	.	.	.	.	.	.	.	.
8BB/	.	.	16f/	.	8bb\	.	.	.	.	.	.	.	.	.	4g/	4dd\
.	.	.	16g/	.	.	.	.	.	.	.	.	.	.	.	.	.
8BB/	.	.	16f/	.	8gg\	.	8B\	-pi-	8d\	-pi-	8g\	-pi-	8dd\	-pi-	.	.
.	.	.	16g/	.	.	.	.	.	.	.	.	.	.	.	.	.
8BB/	.	.	16f/	.	8dd\	.	4B\	-o	4d\	-o	4g\	-o	4dd\	-o	4g/	4dd\
.	.	.	16g/	.	.	.	.	.	.	.	.	.	.	.	.	.
8BB/J	.	.	16f/	.	8gg\J	.	.	.	.	.	.	.	.	.	.	.
.	.	.	16g/JJ	.	.	.	.	.	.	.	.	.	.	.	.	.
*Xtremolo	*	*	*Xtremolo	*	*	*	*	*	*	*	*	*	*	*	*	*
=112	=112	=112	=112	=112	=112	=112	=112	=112	=112	=112	=112	=112	=112	=112	=112	=112
!	!	!	!	!	!	!	!	!	!	!	!	!	!	!	!	!LO:LB:g=original
!	!	!	!	!	!LO:LB:g=original	!	!	!	!	!	!	!	!	!	!	!
8C/L	.	.	16e/LL	.	(8ee\L	.	4c\	et	4c\	et	4g\	et	4ee\	et	8r	8r
.	.	.	16g/	.	.	.	.	.	.	.	.	.	.	.	.	.
8C/	.	.	16e/	.	8gg\J)	.	.	.	.	.	.	.	.	.	8e/L	8cc\L
.	.	.	16g/JJ	.	.	.	.	.	.	.	.	.	.	.	.	.
!	!	!	!LO:LB:g=original	!	!	!	!	!	!	!	!	!	!	!	!	!
8C/	.	.	16e/LL	.	8r	.	4c\	nunc	4c\	nunc	4g\	nunc	4ee\	nunc	8e/	8cc\
.	.	.	16g/	.	.	.	.	.	.	.	.	.	.	.	.	.
8C/	.	.	16e/	.	8gg|>\	.	.	.	.	.	.	.	.	.	8e/J	8cc\J
.	.	.	16g/JJ	.	.	.	.	.	.	.	.	.	.	.	.	.
8BB/	6 5	.	16f/LL	.	16gg\LL	.	4B\	et	4d\	et	4g\	et	4dd\	et	4g/	4dd\
.	.	.	16g/	.	16ff\	.	.	.	.	.	.	.	.	.	.	.
8BB/J	.	.	16f/	.	16ee\	.	.	.	.	.	.	.	.	.	.	.
.	.	.	16g/JJ	.	16dd\JJ	.	.	.	.	.	.	.	.	.	.	.
=113	=113	=113	=113	=113	=113	=113	=113	=113	=113	=113	=113	=113	=113	=113	=113	=113
8C/L	.	.	16e/LL	.	(8ee\L	.	2c\	Sem-	2c\	Sem-	2g\	Sem-	2ee\	Sem-	8r	8r
.	.	.	16g/	.	.	.	.	.	.	.	.	.	.	.	.	.
8C/	.	.	16e/	.	8gg\J)	.	.	.	.	.	.	.	.	.	8e/L	8cc\L
.	.	.	16g/JJ	.	.	.	.	.	.	.	.	.	.	.	.	.
8C/	.	.	16e/LL	.	8r	.	.	.	.	.	.	.	.	.	8e/	8cc\
.	.	.	16g/	.	.	.	.	.	.	.	.	.	.	.	.	.
8C/	.	.	16e/	.	8gg|>\	.	.	.	.	.	.	.	.	.	8e/J	8cc\J
.	.	.	16g/JJ	.	.	.	.	.	.	.	.	.	.	.	.	.
8BB/	6 5	.	16f/LL	.	16gg\LL	.	4B\	-per	4d\	-per	4g\	-per	4dd\	-per	4g/	4dd\
.	.	.	16g/	.	16ff\	.	.	.	.	.	.	.	.	.	.	.
8BB/J	.	.	16f/	.	16ee\	.	.	.	.	.	.	.	.	.	.	.
.	.	.	16g/JJ	.	16dd\JJ	.	.	.	.	.	.	.	.	.	.	.
=114	=114	=114	=114	=114	=114	=114	=114	=114	=114	=114	=114	=114	=114	=114	=114	=114
*tremolo	*	*	*	*	*	*	*	*	*	*	*	*	*	*	*	*
8C/L	.	.	16e/LL	.	8.cc\L	.	2c\	et	2c\	et	2g\	et	2ee\	et	4e/	4cc\
.	.	.	16g/	.	.	.	.	.	.	.	.	.	.	.	.	.
8C/	.	.	16e/	.	.	.	.	.	.	.	.	.	.	.	.	.
*	*	*	*	*	*Xtuplet	*	*	*	*	*	*	*	*	*	*	*
!	!	!	!	!	!LO:TUP:a:problem=klamra łukowa	!	!	!	!	!	!	!	!	!	!	!
.	.	.	16g/JJ	.	48dd\LL	.	.	.	.	.	.	.	.	.	.	.
.	.	.	.	.	48cc\	.	.	.	.	.	.	.	.	.	.	.
.	.	.	.	.	48b\JJJ	.	.	.	.	.	.	.	.	.	.	.
8C/	.	.	16e/LL	.	8cc\L	.	.	.	.	.	.	.	.	.	4e/	4cc\
.	.	.	16g/	.	.	.	.	.	.	.	.	.	.	.	.	.
8C/	.	.	16e/	.	8g\	.	.	.	.	.	.	.	.	.	.	.
.	.	.	16g/JJ	.	.	.	.	.	.	.	.	.	.	.	.	.
8C/	.	.	16e/LL	.	8cc\	.	4c\	in	4c\	in	4g\	in	4ee\	in	4r	4r
.	.	.	16g/	.	.	.	.	.	.	.	.	.	.	.	.	.
8C/J	.	.	16e/	.	8dd\J	.	.	.	.	.	.	.	.	.	.	.
.	.	.	16g/JJ	.	.	.	.	.	.	.	.	.	.	.	.	.
=115	=115	=115	=115	=115	=115	=115	=115	=115	=115	=115	=115	=115	=115	=115	=115	=115
*	*	*	*tremolo	*	*	*	*	*	*	*	*	*	*	*	*	*
!	!	!	!	!	!	!	!	!	!LO:LB:g=original	!	!	!	!	!	!	!
8C/L	.	.	16e/LL	.	8cc\L	.	4.c\	Se-	4.c\	Se-	4.g\	Se-	4.ee\	Se-	4e/	4cc\
.	.	.	16g/	.	.	.	.	.	.	.	.	.	.	.	.	.
8C/	.	.	16e/	.	16ee\L	.	.	.	.	.	.	.	.	.	.	.
.	.	.	16g/	.	16dd\JJ	.	.	.	.	.	.	.	.	.	.	.
8C/	.	.	16e/	.	8ee\L	.	.	.	.	.	.	.	.	.	4e/	4cc\
.	.	.	16g/	.	.	.	.	.	.	.	.	.	.	.	.	.
8C/	.	.	16e/	.	8cc\	.	8c\	-cu-	8c\	-cu-	8g\	-cu-	8ee\	-cu-	.	.
.	.	.	16g/	.	.	.	.	.	.	.	.	.	.	.	.	.
8C/	.	.	16e/	.	8ee\	.	4c\	-la	4c\	-la	4g\	-la	4ee\	-la	4r	4r
.	.	.	16g/	.	.	.	.	.	.	.	.	.	.	.	.	.
8C/J	.	.	16e/	.	8gg\J	.	.	.	.	.	.	.	.	.	.	.
.	.	.	16g/JJ	.	.	.	.	.	.	.	.	.	.	.	.	.
=116	=116	=116	=116	=116	=116	=116	=116	=116	=116	=116	=116	=116	=116	=116	=116	=116
!	!	!	!	!	!	!	!	!	!	!	!	!	!LO:LB:g=original	!	!	!
!	!	!	!	!	!	!	!	!	!	!	!LO:LB:g=original	!	!	!	!	!
8C/L	.	.	16e/LL	.	8ee\L	.	2c\	Se-	2c\	Se-	2g\	Se-	2ee\	Secu-	4e/	4cc\
.	.	.	16g/	.	.	.	.	.	.	.	.	.	.	.	.	.
8C/	.	.	16e/	.	16ccc\L	.	.	.	.	.	.	.	.	.	.	.
.	.	.	16g/	.	16bb\JJ	.	.	.	.	.	.	.	.	.	.	.
8C/	.	.	16e/	.	8ccc\L	.	.	.	.	.	.	.	.	.	4e/	4cc\
.	.	.	16g/	.	.	.	.	.	.	.	.	.	.	.	.	.
8C/	.	.	16e/	.	8gg\	.	.	.	.	.	.	.	.	.	.	.
.	.	.	16g/	.	.	.	.	.	.	.	.	.	.	.	.	.
8C/	.	.	16e/	.	8ee\	.	4c\	-cu-	4c\	-cu-	4g\	-cu-	4ee\	-lo-	4cc\	4ee\
.	.	.	16g/	.	.	.	.	.	.	.	.	.	.	.	.	.
8C/J	.	.	16e/	.	8gg\J	.	.	.	.	.	.	.	.	.	.	.
.	.	.	16g/JJ	.	.	.	.	.	.	.	.	.	.	.	.	.
*Xtremolo	*	*	*Xtremolo	*	*	*	*	*	*	*	*	*	*	*	*	*
=117	=117	=117	=117	=117	=117	=117	=117	=117	=117	=117	=117	=117	=117	=117	=117	=117
!LO:TX:t=P:problem=mixed beam	!	!	!LO:TX:t=P:problem=mixed beam	!	!	!	!	!	!	!	!	!	!	!	!	!
!	!	!	!	!	!	!	!	!	!	!	!	!	!	!	!LO:LB:g=original	!
!	!	!	!	!	!LO:LB:g=original	!	!	!	!	!	!	!	!	!	!	!
8F\L	6	.	8d/L	.	16ff\LL	.	8F\	-lo-	8d\	-lo-	8a\	-lo-	8ff\	-rum	4dd\	4ff\
.	.	.	.	.	16aa\	.	.	.	.	.	.	.	.	.	.	.
8F\	.	.	8dd\	.	16gg\	.	8F\	-rum	8d\	-rum	8a\	-rum	8ff\	a-	.	.
.	.	.	.	.	16ff\JJ	.	.	.	.	.	.	.	.	.	.	.
8G\	.	.	8cc\	.	8ee\L	.	4G\	a-	4c\	a-	2g\	a-	4ee\	.	4cc\	4ee\
8G\	4	.	8ee\	.	8ccc\	.	.	.	.	.	.	.	.	.	.	.
8GG/	3	.	8b\	.	8dd\	.	4GG/	.	4B\	.	.	.	4dd\	.	4g/	4dd\
8GG/J	.	.	8dd\J	.	8bb\J	.	.	.	.	.	.	.	.	.	.	.
=118	=118	=118	=118	=118	=118	=118	=118	=118	=118	=118	=118	=118	=118	=118	=118	=118
!	!	!	!LO:LB:g=original	!	!	!	!	!	!	!	!	!	!	!	!LO:TX:t=P:problem=mixed beam	!
4C/	.	.	8ee\L	.	8ccc\L	.	4C/	-men	4c\	-men	4g\	-men	4ee\	-men	8e/L	8cc\L
.	.	.	8cc\	.	8ee\J	.	.	.	.	.	.	.	.	.	8cc\J	8ee\J
4F\	6 5	.	8a\	.	8dd\L	.	4F\	a-	4c\	a-	4a\	a-	2dd\	a-	4cc\	4dd\
.	.	.	8dd\	.	8ccc\	.	.	.	.	.	.	.	.	.	.	.
4G\	.	.	8b\	.	8dd\	.	4G\	.	4B\	.	4g\	.	.	.	4g/	4dd\
.	.	.	8dd\J	.	8bb\J	.	.	.	.	.	.	.	.	.	.	.
=119	=119	=119	=119	=119	=119	=119	=119	=119	=119	=119	=119	=119	=119	=119	=119	=119
*	*	*	*^	*	*	*	*	*	*	*	*	*	*	*	*	*
!	!	!	!	!	!	!	!	!	!	!	!	!	!	!	!	!	!LO:LB:g=original
4C/	.	.	4ee/	4cc\	.	4ccc 4ee 4g\	.	4C/	-men	4c\	-men	4g\	-men	4ee\	-men	4e/	4cc\
4r	.	.	4r	4ryy	.	4r	.	4r	.	4r	.	4r	.	4r	.	4r	4r
4r	.	.	4r	4ryy	.	4r	.	4r	.	4r	.	4r	.	4r	.	4r	4r
*	*	*	*v	*v	*	*	*	*	*	*	*	*	*	*	*	*	*
==	==	==	==	==	==	==	==	==	==	==	==	==	==	==	==	==
*-	*-	*-	*-	*-	*-	*-	*-	*-	*-	*-	*-	*-	*-	*-	*-	*-
!!!system-decoration: [(g1)][(g2)][(g3)]s9
!!!AIN: 1 alto 1 bass 2 cor 1 organ 1 soprn 1 tenor 2 violn
!!!ENC: Berenika Jozajtis
!!!END: 2021-11-30
!!!ENC: Kamil Watkowski
!!!END: 2021-12-15
!!!RDF**kern: > = above
!!!RDF**kern: < = below
!!!RDF**kern: | = vertical stroke
